!!!!SEGMENT: s-uu--vok-mus-i-hs-22-17_forster-kaspar--sotto-la-luna-non-ve-fermezza.krn
!!!cenid: 16xx:1679
!!!COM: Förster, Kaspar
!!!COM-rismID: pe30006147
!!!CDT: ~1616-1673/02/02
!!!CNT: German
!!!OTL: Sotto la luna non vé fermezza
!!!PDT: 1690
!!!AGN:
!!!YEC: Copyright 2022 Narodowy Instytut Fryderyka Chopina (https://polishscores.org)
!!!YEM: License CC-BY-4.0 (https://creativecommons.org/licenses/by/4.0)
!!!SMS-siglum: S-Uu
!!!SMS-shelfmark: Vok. mus. i hs. 22:17
!!!SMS-shelfwork: W
!!!SMS-variant:
!!!SMS-altvar:
!!!NIFC-rismSourceID: 190008739
!!!NIFC-rismChildID: 190008739
!!!NIFC-islandoraID: none
!!!URL-pdf-islandora:
!!!URL-scan: https://www2.musik.uu.se/duben/presentationSource1.php?Select_Dnr=860 @EN{Scan on Academica} @PL{Skany w zewnętrznej bibliotece cyfrowej}
!!!IIIF:
!!!ONB-nifc: UWAGA: poszczególne partie dostępne po kliknięciu w „browse part”. Informacje nt stron tytułowych w opisie na stronie lub na RISM.
!!!AIN: 1 alto 1 bass 1 tenor 2 violn
!!!key: d
**kern	**fba	**kern	**fba	**kern	**kern	**kern	**text	**kern	**text	**kern	**text
*part7	*part 7	*part6	*	*part5	*part4	*part3	*	*part2	*	*part1	*
*staff7	*	*staff6	*	*staff5	*staff4	*staff3	*	*staff2	*	*staff1	*
*I"Organo [= bc] [ex 1]	*	*I"[bc] [ex 2]	*	*I"Violino 2:do	*I"Viol: 1	*I"Basso.	*	*I"Tenor	*	*I"Alto.	*
*I'org	*	*I'cb	*	*I'vl2	*I'vl 1	*I'B	*	*I'T	*	*I'A	*
*I	*	*	*	*Ivioln	*Ivioln	*Ibass	*	*Itenor	*	*Ialto	*
*ICklav	*	*ICklav	*	*ICstr	*ICstr	*ICvox	*	*ICvox	*	*ICvox	*
*IGcont	*	*IGcont	*	*	*	*	*	*	*	*	*
*clefF4	*	*clefF4	*	*clefG2	*clefG2	*clefF4	*	*clefC4	*	*clefC3	*
*	*	*Trd0c0	*	*	*	*	*	*	*	*	*
*k[b-]	*	*k[b-]	*	*k[b-]	*k[b-]	*k[b-]	*	*k[b-]	*	*k[b-]	*
*d:	*	*d:	*	*d:	*d:	*d:	*	*d:	*	*d:	*
*M6/8	*	*M6/8	*	*M6/8	*M6/8	*M6/8	*	*M6/8	*	*M6/8	*
=1-	=1-	=1-	=1-	=1-	=1-	=1-	=1-	=1-	=1-	=1-	=1-
*all\right	*	*all\right	*	*all\right	*all\right	*	*	*all\right	*	*all\right	*
*2\right	*	*2\right	*	*2\right	*2\right	*	*	*2\right	*	*2\right	*
!	!	!	!	!	!LO:TX:t=P:problem:kreski taktowe zgodne z metrum	!	!	!	!	!	!
!LO:TX:b:i:t=Sotto la lŭna	!	!	!	!LO:TX:b:i:t=Sotto la lŭna	!LO:TX:b:i:t=Sotto la lŭna	!LO:TX:t=P:problem:kreski taktowe zgodne z metrum	!	!LO:TX:t=P:problem:kreski taktowe zgodne z metrum	!	!LO:TX:t=P:problem:kreski taktowe zgodne z metrum	!
4.D/	.	4.D/	.	2.r	2.r	2.r	.	4.r	.	8.d\	Sot-
.	.	.	.	.	.	.	.	.	.	16e\	-to
.	.	.	.	.	.	.	.	.	.	8d\	la
!LO:TX:t=P:problem:mixed beam	!	!LO:TX:t=P:problem:mixed beam	!	!	!	!	!	!	!	!	!
8C/L	6	8C/L	6	.	.	.	.	8.A\	Sot-	8.a\	lŭ-
8AA/	.	8AA/	.	.	.	.	.	.	.	.	.
.	.	.	.	.	.	.	.	16B-\	-to	16a\	-na
!LO:TX:t=P:problem:kreska pseudotaktowa	!	!LO:TX:t=P:problem:kreska pseudotaktowa	!	!	!	!	!	!LO:TX:t=P:problem:kreska pseudotaktowa	!	!LO:TX:t=P:problem:kreska pseudotaktowa	!
8A\J	.	8A\J	.	.	.	.	.	8A\	la	8a\	non
=2-	=2-	=2-	=2-	=2-	=2-	=2-	=2-	=2-	=2-	=2-	=2-
4.d\	6	4.d\	6	2.r	2.r	2.r	.	8.d\	lŭ-	4b-\	ŭ'e
.	.	.	.	.	.	.	.	16d\	-na	.	.
.	.	.	.	.	.	.	.	8d\	non	8b-\	fer-
4.c\	6	4.c\	6	.	.	.	.	4c\	uĕ	8.a\	-meZ-
.	.	.	.	.	.	.	.	.	.	16b-\	-Za
!	!	!	!	!	!	!	!	!LO:TX:t=P:problem:kreska pseudotaktowa	!	!LO:TX:t=P:problem:kreska pseudotaktowa	!
.	.	.	.	.	.	.	.	8c\	fer-	8a\	non
=3-	=3-	=3-	=3-	=3-	=3-	=3-	=3-	=3-	=3-	=3-	=3-
4.B-\	6	4.B-\	6	2.r	2.r	2.r	.	8.B-\	-mez-	4g\	ú'e
.	.	.	.	.	.	.	.	16c\	-za	.	.
.	.	.	.	.	.	.	.	8B-\	.	8g\	non
8.A\L	.	8.A\L	.	.	.	.	.	8.A/	non	8.f\	ú'e
16G\K	.	16G\K	.	.	.	.	.	(16G/	ŭe	(16e\	fer-
!LO:TX:t=P:problem:kreska pseudotaktowa	!	!LO:TX:t=P:problem:kreska pseudotaktowa	!	!	!	!	!	!LO:TX:t=P:problem:kreska pseudotaktowa	!	!LO:TX:t=P:problem:kreska pseudotaktowa	!
8F\J	.	8F\J	.	.	.	.	.	8F/)	.	8d\)	.
=4-	=4-	=4-	=4-	=4-	=4-	=4-	=4-	=4-	=4-	=4-	=4-
*^	*	*^	*	*	*	*	*	*	*	*	*
4.E/	4.AA\	4:3	4.E/	4.AA\	4:3	2.r	2.r	8.AA/	Sot-	4.E/	fer-	4d\	-meZ-
.	.	.	.	.	.	.	.	16BB-/	-to	.	.	.	.
.	.	.	.	.	.	.	.	8AA/	la	.	.	(8c#X\	-Za
4.D/	8ryy	.	4.D/	8ryy	.	.	.	8.D/	lŭ-	4F/	-mez-	4d\)	.
.	4ryy	.	.	4ryy	.	.	.	.	.	.	.	.	.
.	.	.	.	.	.	.	.	16D/	-na	.	.	.	.
!	!	!	!	!	!	!	!	!LO:TX:t=P:problem:kreska pseudotaktowa	!	!LO:TX:t=P:problem:kreska pseudotaktowa	!	!LO:TX:t=P:problem:kreska pseudotaktowa	!
.	.	.	.	.	.	.	.	8D/	non	8F/	-za non	8r	.
*v	*v	*	*	*	*	*	*	*	*	*	*	*	*
*	*	*v	*v	*	*	*	*	*	*	*	*	*
=5-	=5-	=5-	=5-	=5-	=5-	=5-	=5-	=5-	=5-	=5-	=5-
4.C/	6	4.C/	6	2.r	2.r	4C/	ŭe'	4E/	ŭe'	8.A/	Sot-
.	.	.	.	.	.	.	.	.	.	16B-/	-to
.	.	.	.	.	.	8C/	fer-	8r	.	8A/	la
!LO:TX:t=P:problem:kreska pseudotaktowa	!	!LO:TX:t=P:problem:kreska pseudotaktowa	!	!	!	!	!	!	!	!	!
4.BB-/	7:6	4.BB-/	7:6	.	.	8.BB-/	-mez-	8.D/	sot-	8.d\	lu-
.	.	.	.	.	.	(16C/	.	16E/	-to	16d\	-na
!	!	!	!	!	!	!LO:TX:t=P:problem:kreska pseudotaktowa	!	!	!	!LO:TX:t=P:problem:kreska pseudotaktowa	!
.	.	.	.	.	.	8BB-/)	.	8D/	la	8d\	nō
!	!	!	!	!	!	!	!	!	!LO:LB:g=original	!LO:LB:g=original	!
=6-	=6-	=6-	=6-	=6-	=6-	=6-	=6-	=6-	=6-	=6-	=6-
4.AA/	-	4.AA/	-	2.r	2.r	8.AA/	.	8.A/	lu-	4cny/	ŭ'e
.	.	.	.	.	.	16AA/	-za	16A/	-na	.	.
.	.	.	.	.	.	8AA/	non	8A/	non	8f\	non
4D\	6	4D/	6	.	.	4D\	ŭe'	4B-\	ŭe'	4f\	u'e
!	!	!	!	!	!	!LO:TX:t=P:problem:kreska pseudotaktowa	!	!LO:TX:t=P:problem:kreska pseudotaktowa	!	!LO:TX:t=P:problem:kreska pseudotaktowa	!
8E\	.	8E\	.	.	.	8E\	fer-	8B-\	fer-	8g\	fer-
=7-	=7-	=7-	=7-	=7-	=7-	=7-	=7-	=7-	=7-	=7-	=7-
4.F\	.	4.F\	.	2.r	2.r	8.F\	-mez-	8.A\	-mez-	(4.f\	-meZ-
.	.	.	.	.	.	(16G\	.	(16B-\	.	.	.
.	.	.	.	.	.	8A\)	.	8c\)	.	.	.
!LO:TX:t=P:problem:kreska pseudotaktowa	!	!LO:TX:t=P:problem:kreska pseudotaktowa	!	!	!	!LO:SIC:v:t=custos A	!	!LO:TX:t=P:problem:kreska pseudotaktowa	!	!	!
4.B-\	7:6	4.B-\	7:6	.	.	4.B-\	.	4.d\	.	8f\	.
!	!	!	!	!	!	!	!	!	!	!LO:TX:t=P:problem:kreska pseudotaktowa	!
.	.	.	.	.	.	.	.	.	.	4g\)	.
!	!	!	!	!	!	!LO:LB:g=original	!	!	!	!	!
=8-	=8-	=8-	=8-	=8-	=8-	=8-	=8-	=8-	=8-	=8-	=8-
4A\	#	4A\	#	2.r	2.r	4A\	-za	4c#X\	-za	4a\	-Za
8F\	.	8F\	.	.	.	8F\	non	8f\	non	8a\	nō
4.C/	4:3	4.C/	4:3	.	.	4C/	ŭe'	4f\	ŭe'	4g\	u'e
!	!	!	!	!	!	!LO:TX:t=P:problem:kreska pseudotaktowa	!	!	!	!LO:TX:t=P:problem:kreska pseudotaktowa	!
.	.	.	.	.	.	8C/	fer-	8e\	fer-	8g\	fer-
=9-	=9-	=9-	=9-	=9-	=9-	=9-	=9-	=9-	=9-	=9-	=9-
4.F\	.	4.F\	.	2.r	2.r	4FF/	-mez-	4f\	-mez-	4a\	-meZ-
.	.	.	.	.	.	8FF/	-za	8f\	-za	8a\	-Za,
!	!	!LO:SIC:v:t=custos B	!	!	!	!	!	!	!	!	!
!LO:TX:t=P:problem:kreska pseudotaktowa	!	!LO:TX:t=P:problem:kreska pseudotaktowa	!	!	!	!	!	!	!	!	!
4.F\	.	4.F\	.	.	.	8r	.	8.f\	fol-	8.a\	fol-
!	!	!	!	!	!	!LO:TX:t=P:problem:kreska pseudotaktowa	!	!	!	!	!
.	.	.	.	.	.	4r	.	.	.	.	.
.	.	.	.	.	.	.	.	16e\	-le	16g\	-le
!	!	!	!	!	!	!	!	!LO:TX:t=P:problem:kreska pseudotaktowa	!	!LO:TX:t=P:problem:kreska pseudotaktowa	!
.	.	.	.	.	.	.	.	8f\	chi	8a\	chi
!	!	!LO:LB:g=original	!	!	!	!	!	!	!	!	!
=10-	=10-	=10-	=10-	=10-	=10-	=10-	=10-	=10-	=10-	=10-	=10-
8.B-\L	.	8.B-\L	.	2.r	2.r	8.B-\	fol-	4d\	prez-	4f\	preZ-
16A\K	.	16A\K	.	.	.	16A\	-le	.	.	.	.
!	!	!	!	!	!	!	!	!LO:SIC:v:t=custos e	!	!	!
8B-\J	.	8B-\J	.	.	.	8B-\	chi	8d\	-za	8f\	-Za
*	*	*	*	*	*	*	*	*	*	*	*ij
!LO:SIC:v:t=custos A	!	!	!	!	!LO:TX:t=P:problem:kreska pseudotaktowa	!	!	!LO:LB:g=original	!	!	!
4.G\	.	4.G\	.	.	.	(4.G\	prez-	8.e\	fol-	8.g\	fol-
.	.	.	.	.	.	.	.	16d\	-le	16f\	-le
!	!	!	!	!	!	!	!	!LO:TX:t=P:problem:kreska pseudotaktowa	!	!LO:TX:t=P:problem:kreska pseudotaktowa	!
.	.	.	.	.	.	.	.	8e\	-chi	8g\	chi
!LO:LB:g=original	!	!	!	!	!	!	!	!	!	!	!
=11-	=11-	=11-	=11-	=11-	=11-	=11-	=11-	=11-	=11-	=11-	=11-
4.A\	#	4.A\	#	2.r	2.r	4A\)	.	4cny\	prez-	4e\	preZ-
.	.	.	.	.	.	8A\	-za	8c\	-za	8d\	-Za
*	*	*	*	*	*	*	*	*	*	*	*Xij
8.D\L	.	8.D\L	.	.	.	8.D/	uas-	4d\	ŭas-	8.f\	uas-
16E\K	.	16E\K	.	.	.	16E\	-ta	.	.	16g\	-ta
!LO:TX:t=P:problem:kreska pseudotaktowa	!	!LO:TX:t=P:problem:kreska pseudotaktowa	!	!	!	!	!	!	!	!	!
8F\J	.	8F\J	.	.	.	8F\	for-	8d\	-ta	8a\	for-
!	!	!	!	!	!	!	!	!	!	!LO:LB:g=original	!
=12-	=12-	=12-	=12-	=12-	=12-	=12-	=12-	=12-	=12-	=12-	=12-
!LO:TX:t=P:problem:mixed beam	!	!LO:TX:t=P:problem:mixed beam	!	!	!	!	!	!	!	!	!
8G\L	.	8G\L	.	2.r	4.r	(8G\	-tu-	8d\	for-	(16g\LL	-tŭ-
.	.	.	.	.	.	.	.	.	.	16f\JJ	.
8A\	4:3	8A\	4:3	.	.	4A\)	.	8.d\	-tu-	4e\)	.
8AA/J	.	8AA/J	.	.	.	.	.	.	.	.	.
.	.	.	.	.	.	.	.	(16c#X\	-na	.	.
!LO:TX:b:t=Rittorn&colon;	!	!	!	!	!	!	!	!	!	!	!
4.D/	.	4.D/	.	.	8.dd\L	4.D/	-na	4.d\)	.	4.d\	-na
.	.	.	.	.	16ee\K	.	.	.	.	.	.
!	!	!	!	!	!LO:TX:t=P:problem:kreska pseudotaktowa	!	!	!	!	!	!
.	.	.	.	.	8dd\J	.	.	.	.	.	.
=13-	=13-	=13-	=13-	=13-	=13-	=13-	=13-	=13-	=13-	=13-	=13-
4.C/	.	4.C/	.	8.a/L	8.aa\L	2.r	.	2.r	.	2.r	.
.	.	.	.	16b-/K	16aa\K	.	.	.	.	.	.
.	.	.	.	8a/J	8aa\J	.	.	.	.	.	.
8.BB-/L	.	8.BB-/L	.	8.dd\L	4bb-\	.	.	.	.	.	.
16AA/K	#	16AA/K	#	16dd\K	.	.	.	.	.	.	.
!LO:TX:t=P:problem:kreska pseudotaktowa	!	!LO:TX:t=P:problem:kreska pseudotaktowa	!	!LO:TX:t=P:problem:kreska pseudotaktowa	!LO:TX:t=P:problem:kreska pseudotaktowa	!	!	!	!	!	!
8GG/J	6	8GG/J	6	8ee\J	8bb-\	.	.	.	.	.	.
=14-	=14-	=14-	=14-	=14-	=14-	=14-	=14-	=14-	=14-	=14-	=14-
4.FF/	.	4.FF/	.	4ff\	8.aa\L	2.r	.	2.r	.	2.r	.
.	.	.	.	.	16bb-\K	.	.	.	.	.	.
.	.	.	.	8ff\	8aa\J	.	.	.	.	.	.
8C/	.	8C/	.	8ee\L	8.gg\L	.	.	.	.	.	.
4AA/	6	4AA/	6	8.ff\	.	.	.	.	.	.	.
.	.	.	.	.	16aa\K	.	.	.	.	.	.
!	!	!	!	!	!LO:TX:t=P:problem:kreska pseudotaktowa	!	!	!	!	!	!
.	.	.	.	.	8gg\J	.	.	.	.	.	.
!	!	!	!	!LO:TX:t=P:problem:kreska pseudotaktowa	!	!	!	!	!	!	!
.	.	.	.	16ee\Jk	.	.	.	.	.	.	.
=15-	=15-	=15-	=15-	=15-	=15-	=15-	=15-	=15-	=15-	=15-	=15-
4.BB-/	.	4.BB-/	.	8.dd\L	8.ff\L	2.r	.	2.r	.	2.r	.
.	.	.	.	16cc\K	16ee\K	.	.	.	.	.	.
.	.	.	.	8dd\J	8ff\J	.	.	.	.	.	.
!LO:TX:t=P:problem:kreska pseudotaktowa	!	!LO:TX:t=P:problem:kreska pseudotaktowa	!	!	!	!	!	!	!	!	!
4.GG/	6	4.GG/	6	8.ee\L	8.gg\L	.	.	.	.	.	.
.	.	.	.	16ff\L	16aa\L	.	.	.	.	.	.
.	.	.	.	16dd\	16ff\	.	.	.	.	.	.
!	!	!	!	!LO:TX:t=P:problem:kreska pseudotaktowa	!LO:TX:t=P:problem:kreska pseudotaktowa	!	!	!	!	!	!
.	.	.	.	16ee\JJ	16gg\JJ	.	.	.	.	.	.
=16-	=16-	=16-	=16-	=16-	=16-	=16-	=16-	=16-	=16-	=16-	=16-
4.AA/	.	4.AA/	.	8.cc#X\L	8.ee\L	2.r	.	2.r	.	2.r	.
.	.	.	.	16b-\K	16dd\K	.	.	.	.	.	.
!	!	!	!	!LO:TX:t=P:problem:# above	!	!	!	!	!	!	!
.	.	.	.	8cc#X\J	8ee\J	.	.	.	.	.	.
4.AA/	.	4.AA/	.	8r	8.aa\L	.	.	.	.	.	.
!	!	!	!	!LO:TX:t=P:problem:kreska pseudotaktowa	!	!	!	!	!	!	!
.	.	.	.	4r	.	.	.	.	.	.	.
.	.	.	.	.	16gg\K	.	.	.	.	.	.
!	!	!	!	!	!LO:SIC:v:t=custos ff	!	!	!	!	!	!
.	.	.	.	.	8aa\J	.	.	.	.	.	.
!	!	!	!	!	!LO:LB:g=original	!	!	!	!	!	!
=17-	=17-	=17-	=17-	=17-	=17-	=17-	=17-	=17-	=17-	=17-	=17-
4.D/	.	4.D/	.	8.dd\L	4ff\	2.r	.	2.r	.	2.r	.
.	.	.	.	16ccny\K	.	.	.	.	.	.	.
.	.	.	.	8dd\J	8ff\	.	.	.	.	.	.
!LO:TX:t=P:problem:kreska pseudotaktowa	!	!LO:TX:t=P:problem:kreska pseudotaktowa	!	!LO:N:acc=#:global	!	!	!	!	!	!	!
4.GG/	.	4.GG/	.	4bn/	8.gg\L	.	.	.	.	.	.
.	.	.	.	.	16ff\K	.	.	.	.	.	.
!	!	!	!	!LO:SIC:v:t=custos cc	!LO:TX:t=P:problem:kreska pseudotaktowa	!	!	!	!	!	!
.	.	.	.	8b/	8gg\J	.	.	.	.	.	.
!	!	!	!	!LO:LB:g=original	!	!	!	!	!	!	!
=18-	=18-	=18-	=18-	=18-	=18-	=18-	=18-	=18-	=18-	=18-	=18-
4.C/	.	4.C/	.	8cc\L	8.ee\L	2.r	.	2.r	.	2.r	.
!	!	!	!	!LO:N:acc=#	!	!	!	!	!	!	!
!	!	!	!	!LO:TX:t=P:problem:# above	!	!	!	!	!	!	!
.	.	.	.	8.bn\	.	.	.	.	.	.	.
.	.	.	.	.	16dd\K	.	.	.	.	.	.
.	.	.	.	.	8ee\J	.	.	.	.	.	.
.	.	.	.	16cc\Jk	.	.	.	.	.	.	.
8AA/	.	8AA/	.	8cc/L	8ff\L	.	.	.	.	.	.
4C/	4:3	4C/	.	8.g/	8.ff\	.	.	.	.	.	.
!	!	!	!	!LO:TX:t=P:problem:kreska pseudotaktowa	!LO:TX:t=P:problem:kreska pseudotaktowa	!	!	!	!	!	!
.	.	.	.	16g/Jk	16ee\Jk	.	.	.	.	.	.
=19-	=19-	=19-	=19-	=19-	=19-	=19-	=19-	=19-	=19-	=19-	=19-
8FF/	.	8FF/	.	8a/L	8ff\L	2.r	.	2.r	.	2.r	.
4GG/	6	4GG/	.	8.g/	8.ee\	.	.	.	.	.	.
.	.	.	.	16f/Jk	16dd\Jk	.	.	.	.	.	.
!	!	!	!	!LO:TX:t=P:problem:kreska pseudotaktowa	!LO:TX:t=P:problem:kreska pseudotaktowa	!	!	!	!	!	!
4AA/	#	4AA/	.	4.e/	4.cc#X\	.	.	.	.	.	.
!LO:TX:t=P:problem:kreska pseudotaktowa	!	!LO:SIC:v:t=custos FF	!	!	!	!	!	!	!	!	!
8GG/	.	8GG/	.	.	.	.	.	.	.	.	.
!	!	!LO:LB:g=original	!	!	!	!	!	!	!	!	!
=20-	=20-	=20-	=20-	=20-	=20-	=20-	=20-	=20-	=20-	=20-	=20-
8FF/	6	8FF/	6	8f/	8dd\	2.r	.	2.r	.	2.r	.
4EE/	6\	4EE/	6\	4g/	4cc#X\	.	.	.	.	.	.
!	!	!	!	!LO:TX:t=P:problem:kreska pseudotaktowa	!LO:TX:t=P:problem:kreska pseudotaktowa	!	!	!	!	!	!
8.DD/L	.	8.DD/L	.	4.f/	4.dd\	.	.	.	.	.	.
16EE/K	.	16EE/K	.	.	.	.	.	.	.	.	.
!LO:SIC:v:t=custos GG	!	!	!	!	!	!	!	!	!	!	!
8FF/J	.	8FF/J	.	.	.	.	.	.	.	.	.
!LO:LB:g=original	!	!	!	!	!	!	!	!	!	!	!
=21-	=21-	=21-	=21-	=21-	=21-	=21-	=21-	=21-	=21-	=21-	=21-
8GG/	.	8GG/	6 5	8e/L	8dd\L	2.r	.	2.r	.	2.r	.
4AA/	.	4AA/	4:3	8.e/	8.dd\	.	.	.	.	.	.
!	!	!	!	!	!LO:TX:t=P:problem:# above	!	!	!	!	!	!
.	.	.	.	16e/Jk	16cc#X\Jk	.	.	.	.	.	.
4.D/	.	4.D/	.	4f/	4.dd\	.	.	.	.	.	.
.	.	.	.	8r	.	.	.	.	.	.	.
!	!	!	!	!	!	!LO:LB:g=original	!	!	!	!	!
=22:||:	=22:||:	=22:||:	=22:||:	=22:||:	=22:||:	=22:||:	=22:||:	=22:||:	=22:||:	=22:||:	=22:||:
*M2/1	*	*M2/1	*	*M2/1	*M2/1	*M2/1	*	*M2/1	*	*M2/1	*
*met(C)	*	*met(C)	*	*met(C)	*met(C)	*met(C)	*	*met(C)	*	*met(C)	*
!LO:TX:b:i:t=Muta	!	!	!	!LO:TX:b:i:t=Muta	!LO:TX:b:i:t=Muta	!	!	!	!	!	!
4r	.	4r	.	0r	0r	4r	.	4r	.	4r	.
2BB-/	.	2BB-/	.	.	.	2BB-/	Mu-	2d\	Mu-	2f\	-Mŭ-
4AA/	6	4AA/	6	.	.	8.AA/	-ta	8.cny\	-ta	8.f\	-ta
!	!	!	!	!	!	!LO:TX:t=P:problem:kreska pseudotaktowa	!	!LO:TX:t=P:problem:kreska pseudotaktowa	!	!LO:TX:t=P:problem:kreska pseudotaktowa	!
.	.	.	.	.	.	16AA/	ogn'-	16c\	ogn'-	16f\	ogn-
2BB-/	.	2BB-/	.	.	.	4BB-/	-ho-	4d\	-ho-	4f\	-ho-
.	.	.	.	.	.	8BB-/	-ra	8d\	-ra	8f\	-ra
.	.	.	.	.	.	8BB-/	il	8d\	il	8f\	il
!LO:TX:t=P:problem:kreska pseudotaktowa	!	!LO:TX:t=P:problem:kreska pseudotaktowa	!	!	!	!	!	!	!	!	!
2GG/	6	2GG/	6	.	.	4.GG/	suo	4.e\	sŭo	4.b-\	súo
!	!	!	!	!	!	!LO:TX:t=P:problem:kreska pseudotaktowa	!	!	!	!	!
.	.	.	.	.	.	8GG/	sem-	8e\	sem-	8b-\	sem-
!	!	!	!	!	!	!	!	!LO:LB:g=original	!	!	!
=23-	=23-	=23-	=23-	=23-	=23-	=23-	=23-	=23-	=23-	=23-	=23-
2FF/	.	2FF/	.	0r	0r	4FF/	-bian-	4f\	-bian-	4a\	-biā-
.	.	.	.	.	.	4FF/	-te	4f\	-te	4a\	-te
4F\	.	4F\	.	.	.	4F\	il	4f\	il	4a\	il
!	!	!	!	!	!	!LO:TX:t=P:problem:kreska pseudotaktowa	!	!	!	!	!
4G\	.	4G\	.	.	.	4G\	ciel	8e\L	ciel	8g\L	Ciel
!	!	!	!	!	!	!	!	!LO:TX:t=P:problem:kreska pseudotaktowa	!	!LO:TX:t=P:problem:kreska pseudotaktowa	!
.	.	.	.	.	.	.	.	8d\J	.	8f\J	.
4.A\	.	4.A\	.	.	.	4.A\	stes-	4.c#X\	stes-	4.e\	stes-
8AA/	.	8AA/	.	.	.	8AA/	-so	8c#\	-so	8e\	-so
2BB-/	6	2BB-/	6	.	.	4BB-/	en-	4d\	en-	4g\	en-
.	.	.	.	.	.	8BB-/	-tri'	8d\	-tri	8g\	-tri
!	!	!	!	!	!	!LO:SIC:v:t=custos AA	!	!	!	!	!
!	!	!	!	!	!	!LO:TX:t=P:problem:kreska pseudotaktowa	!	!LO:TX:t=P:problem:kreska pseudotaktowa	!	!LO:TX:t=P:problem:kreska pseudotaktowa	!
.	.	.	.	.	.	8BB-/	suoi	8e\	suoi	8g\	suoi
!	!	!	!	!	!	!LO:LB:g=original	!	!	!	!	!
=24-	=24-	=24-	=24-	=24-	=24-	=24-	=24-	=24-	=24-	=24-	=24-
2AA/	#	2AA/	#	0r	0r	4AA/	gi-	4c#X\	gi-	4e\	gi-
.	.	.	.	.	.	4AA/	-ri	4c#\	-ri	4e\	-ri
!LO:TX:t=P:problem:kreska pseudotaktowa	!	!LO:TX:t=P:problem:kreska pseudotaktowa	!	!	!	!	!	!LO:TX:t=P:problem:kreska pseudotaktowa	!	!	!
2AA/	#	2AA/	#	.	.	4r	.	2r	.	2r	.
.	.	.	.	.	.	8.A\	e	.	.	.	.
!	!	!	!	!	!	!LO:TX:t=P:problem:kreska pseudotaktowa	!	!	!	!	!
.	.	.	.	.	.	16G\	di	.	.	.	.
4D/	#	4D/	#	.	.	4F#X\	mo-	2r	.	1r	.
4BB-/	6	4BB-/	6	.	.	8G\	-stra	.	.	.	.
.	.	.	.	.	.	8G\	i	.	.	.	.
4C/	6 5	4C/	6 5	.	.	4G\	suoi	4r	.	.	.
!	!	!	!	!	!	!LO:TX:t=P:problem:kreska pseudotaktowa	!	!	!	!	!
4D/	#	4D/	#	.	.	4F#X\	Zaf-	8.d\	e	.	.
.	.	.	.	.	.	.	.	16cny\	di	.	.
!	!	!	!	!	!	!	!	!	!	!LO:LB:g=original	!
=25-	=25-	=25-	=25-	=25-	=25-	=25-	=25-	=25-	=25-	=25-	=25-
!	!	!	!	!	!	!	!	!LO:N:acc=#:global	!	!	!
4G\	.	4G\	.	0r	0r	8G\L	-fi-	4Bn\	mo-	2r	.
.	.	.	.	.	.	16Fny\L	.	.	.	.	.
.	.	.	.	.	.	16G\JJ	.	.	.	.	.
4E\	6	4E\	6	.	.	8E\L	.	8c\	-strai	.	.
.	.	.	.	.	.	16D\L	.	8c\	suo-	.	.
.	.	.	.	.	.	16E\JJ	.	.	.	.	.
4F\	6 5	4F\	6 5	.	.	4F\	.	4c\	-i	4r	.
!LO:TX:t=P:problem:kreska pseudotaktowa	!	!LO:TX:t=P:problem:kreska pseudotaktowa	!	!	!	!LO:TX:t=P:problem:kreska pseudotaktowa	!	!LO:SIC:v:t=custos c	!	!	!
!	!	!	!	!	!	!	!	!LO:N:acc=#	!	!	!
4G\	#	4G\	#	.	.	4G\	-ri	4Bn\	Zaf-	(16g\LL	ho-
.	.	.	.	.	.	.	.	.	.	16a\JJ)	.
.	.	.	.	.	.	.	.	.	.	(16g\LL	-ra
!	!	!	!	!	!	!	!	!	!	!LO:TX:t=P:problem:kreska pseudotaktowa	!
.	.	.	.	.	.	.	.	.	.	16f\JJ)	.
!	!	!	!	!	!	!	!	!LO:LB:g=original	!	!	!
4C/	.	4C/	.	.	.	(16C/LL	ho-	8c\	-fi-	16e\LL	tor-
.	.	.	.	.	.	16D/JJ)	.	.	.	16f\JJ	.
.	.	.	.	.	.	(16C/LL	-ra	8c\	-ri	16e\LL	-bi-
.	.	.	.	.	.	16BB-/JJ)	.	.	.	16d\JJ	.
4AA/	.	4AA/	.	.	.	(16AA/LL	tor-	(16c\LL	ho-	8c\L	-do
.	.	.	.	.	.	16BB-/JJ)	.	16d\JJ)	.	.	.
.	.	.	.	.	.	(16AA/LL	-bi-	(16c\LL	-ra	16d\L	.
.	.	.	.	.	.	16GG/JJ)	.	16B-y\JJ)	.	16e\JJ	.
4FF/	.	4FF/	.	.	.	8FF/L	-do	8A/	tor-	4f\	.
.	.	.	.	.	.	16GG/L	.	16B-\	-bi-	.	.
.	.	.	.	.	.	16AA/JJ	.	16c\	-do	.	.
!	!	!	!	!	!	!	!	!	!	!LO:TX:t=P:problem:kreska pseudotaktowa	!
8BB-/L	.	8BB-/L	.	.	.	8BB-/	hor	8d\	hor	4r	.
!	!	!LO:SIC:v:t=custos AA	!	!	!	!	!	!LO:TX:t=P:problem:kreska pseudotaktowa	!	!	!
8GG/J	.	8GG/J	.	.	.	8GG/	stel-	8d\	stel-	.	.
!	!	!LO:LB:g=original	!	!	!	!LO:LB:g=original	!	!	!	!	!
=26-	=26-	=26-	=26-	=26-	=26-	=26-	=26-	=26-	=26-	=26-	=26-
2AA/	4:3	2AA/	4:3	0r	0r	16AA/LL	-lan-	4.d\	-lan-	4r	.
.	.	.	.	.	.	16GG/	.	.	.	.	.
.	.	.	.	.	.	16AA/	.	.	.	.	.
.	.	.	.	.	.	16BB-/JJ	.	.	.	.	.
.	.	.	.	.	.	4AA/	.	.	.	(16a\LL	ho-
.	.	.	.	.	.	.	.	.	.	16b-\JJ)	.
.	.	.	.	.	.	.	.	8c#X\	-te	(16a\LL	-ra
.	.	.	.	.	.	.	.	.	.	16g\JJ)	.
4D/	-	4D/	.	.	.	4D/	-te	(16d\LL	ho-	(16f\LL	tor-
.	.	.	.	.	.	.	.	16e\JJ)	.	16g\JJ)	.
.	.	.	.	.	.	.	.	(16d\LL	-ra	(16f\LL	-bi-
.	.	.	.	.	.	.	.	16c#\JJ)	.	16e\JJ)	.
!LO:SIC:v:t=custos E	!	!	!	!	!	!	!	!	!	!LO:TX:t=P:problem:kreska pseudotaktowa	!
4G\	.	4G\	.	.	.	(16G\LL	ho-	(16B-\LL	tor-	4d\	-do
.	.	.	.	.	.	16A\JJ)	.	16c#\JJ)	.	.	.
.	.	.	.	.	.	(16G\LL	-ra	(16B-\LL	-bi-	.	.
!	!	!	!	!	!	!LO:TX:t=P:problem:kreska pseudotaktowa	!	!LO:TX:t=P:problem:kreska pseudotaktowa	!	!	!
.	.	.	.	.	.	16F\JJ)	.	16A\JJ)	.	.	.
!LO:LB:g=original	!	!	!	!	!	!	!	!	!	!	!
4E\	6	4E\	.	.	.	(16E\LL	tor-	8G/L	-do	(16g\LL	ho-
.	.	.	.	.	.	16F\JJ)	.	.	.	16a\JJ)	.
.	.	.	.	.	.	(16E\LL	-bi-	16A/L	.	(16g\LL	-ra
.	.	.	.	.	.	16D\JJ)	.	16B-/JJ	.	16f\JJ)	.
4C/	.	4C/	.	.	.	16C/LL	-do	8cny\	hor	(16e\LL	tor-
.	.	.	.	.	.	16D/	.	.	.	16f\JJ)	.
!	!	!	!	!	!	!	!	!LO:SIC:v:t=custos A	!	!	!
.	.	.	.	.	.	16C/	.	8G/	stel-	(16e\LL	-bi-
.	.	.	.	.	.	16BB-/JJ	.	.	.	16d\JJ)	.
!	!	!	!	!	!	!	!	!LO:LB:g=original	!	!	!
4AA/	.	4AA/	.	.	.	16AA/LL	.	8A/	-lan-	8c\L	-do
.	.	.	.	.	.	16BB-/	.	.	.	.	.
.	.	.	.	.	.	16AA/	.	8A/	-te	16d\L	.
.	.	.	.	.	.	16GG/JJ	.	.	.	16e\JJ	.
8FF/L	.	8FF/L	.	.	.	8FF/	hor	8A/	hor	8f\	hor
!LO:TX:t=P:problem:kreska pseudotaktowa	!	!LO:TX:t=P:problem:kreska pseudotaktowa	!	!	!	!LO:TX:t=P:problem:kreska pseudotaktowa	!	!LO:TX:t=P:problem:kreska pseudotaktowa	!	!LO:TX:t=P:problem:kreska pseudotaktowa	!
8EE/J	6	8EE/J	6	.	.	8EE/	stel-	8c\	stel-	8g\	stel-
=27-	=27-	=27-	=27-	=27-	=27-	=27-	=27-	=27-	=27-	=27-	=27-
4FF/	6 5	4FF/	6 5	2r	4r	(4FF/	-lan-	4.c\	-lan-	16d\LL	-lan-
.	.	.	.	.	.	.	.	.	.	16c\	.
.	.	.	.	.	.	.	.	.	.	16d\	.
.	.	.	.	.	.	.	.	.	.	16e\JJ	.
4AA/	#	4AA/	#	.	16gg\LL	4GG/)	.	.	.	4d\	.
.	.	.	.	.	16aa\	.	.	.	.	.	.
!	!	!	!	!	!	!	!	!LO:N:acc=#	!	!	!
.	.	.	.	.	16gg\	.	.	(8Bn\	-te	.	.
!	!	!	!	!	!LO:SIC:v:t=custos ee	!	!	!	!	!	!
.	.	.	.	.	16ff\JJ	.	.	.	.	.	.
!	!	!	!	!	!LO:LB:g=original	!	!	!	!	!	!
4C/	.	4C/	.	16cc\LL	16ee\LL	4C/	-te	4c\)	.	4e\	-te
.	.	.	.	16dd\	16ff\	.	.	.	.	.	.
.	.	.	.	16cc\	16ee\	.	.	.	.	.	.
.	.	.	.	16b-\JJ	16dd\JJ	.	.	.	.	.	.
!LO:TX:t=P:problem:kreska pseudotaktowa	!	!LO:TX:t=P:problem:kreska pseudotaktowa	!	!	!	!LO:TX:t=P:problem:kreska pseudotaktowa	!	!	!	!	!
(4F\	.	(4F\	.	16a/LL	16ccny\LL	4r	.	4r	.	4r	.
.	.	.	.	16b-/	16dd\	.	.	.	.	.	.
.	.	.	.	16a/	16cc\	.	.	.	.	.	.
!	!	!	!	!LO:TX:t=P:problem:kreska pseudotaktowa	!LO:TX:t=P:problem:kreska pseudotaktowa	!	!	!	!	!	!
.	.	.	.	16g/JJ	16b-\JJ	.	.	.	.	.	.
!	!	!	!	!	!	!	!	!	!	!LO:LB:g=original	!
4F\)	.	4F\)	.	16f\LL	4a/	1r	.	1r	.	1r	.
.	.	.	.	16cc\	.	.	.	.	.	.	.
.	.	.	.	16dd\	.	.	.	.	.	.	.
.	.	.	.	16ee\JJ	.	.	.	.	.	.	.
2F\	5:6	2F\	5:6	16ff\LL	16aa\LL	.	.	.	.	.	.
.	.	.	.	16gg\	16bb-\	.	.	.	.	.	.
.	.	.	.	16ff\	16aa\	.	.	.	.	.	.
.	.	.	.	16ee\JJ	16gg\JJ	.	.	.	.	.	.
!	!	!	!	!LO:LB:g=original	!	!	!	!	!	!	!
.	.	.	.	16dd\LL	16ff\LL	.	.	.	.	.	.
.	.	.	.	16ee\	16gg\	.	.	.	.	.	.
.	.	.	.	16dd\	16ff\	.	.	.	.	.	.
.	.	.	.	16cc\JJ	16ee\JJ	.	.	.	.	.	.
!	!	!	!	!LO:N:acc=#	!	!	!	!	!	!	!
4G\	#	4G\	#	16bn\LL	16dd\LL	.	.	.	.	.	.
!	!	!	!	!LO:TX:t=P:problem:# above	!	!	!	!	!	!	!
.	.	.	.	16cc#X\	16ee\	.	.	.	.	.	.
.	.	.	.	16b\	16dd\	.	.	.	.	.	.
!	!	!	!	!LO:TX:t=P:problem:kreska pseudotaktowa	!LO:TX:t=P:problem:kreska pseudotaktowa	!	!	!	!	!	!
.	.	.	.	16cc#\JJ	16ee\JJ	.	.	.	.	.	.
=28-	=28-	=28-	=28-	=28-	=28-	=28-	=28-	=28-	=28-	=28-	=28-
!	!	!	!	!	!	!	!	!LO:TX:t=P:problem:kreska pseudotaktowa	!	!	!
4D/	-	4D/	-	8dd\L	16ff\LL	2r	.	0r	.	4r	.
.	.	.	.	.	16aa\	.	.	.	.	.	.
.	.	.	.	8dd\	16gg\	.	.	.	.	.	.
.	.	.	.	.	16ff\JJ	.	.	.	.	.	.
4AA/	4:3	4AA/	4:3	8dd\	4ee\	.	.	.	.	8.a\	e
!	!	!	!	!LO:TX:t=P:problem:# above	!	!	!	!	!	!	!
.	.	.	.	8cc#X\J	.	.	.	.	.	.	.
.	.	.	.	.	.	.	.	.	.	16g\	di
4D/	#	4D/	#	4dd\	4dd\	(16D/LL	hor-	.	.	4f#X\	mo-
.	.	.	.	.	.	16E/)	.	.	.	.	.
.	.	.	.	.	.	(16D/	-ra	.	.	.	.
.	.	.	.	.	.	16C/JJ)	.	.	.	.	.
!LO:TX:t=P:problem:kreska pseudotaktowa	!	!LO:TX:t=P:problem:kreska pseudotaktowa	!	!LO:TX:t=P:problem:kreska pseudotaktowa	!	!	!	!	!	!	!
4BB-/	6	4BB-/	6	4r	16dd\LL	16BB-/LL	tor-	.	.	8g\	-stra
.	.	.	.	.	16ee\	16C/JJ	.	.	.	.	.
!	!	!	!	!	!	!	!	!	!	!LO:TX:t=P:problem:kreska pseudotaktowa	!
.	.	.	.	.	16dd\	(16BB-/LL	-bi-	.	.	8g\	i
!	!	!	!	!	!LO:TX:t=P:problem:kreska pseudotaktowa	!LO:SIC:v:t=custos GG	!	!	!	!	!
.	.	.	.	.	16cc\JJ	16AA/JJ)	.	.	.	.	.
!	!	!	!	!	!	!LO:LB:g=original	!	!	!	!	!
4GG/	.	4GG/	.	4r	16b-\LL	4GG/	-do	.	.	4g\	suoi
.	.	.	.	.	16cc\	.	.	.	.	.	.
.	.	.	.	.	16b-\	.	.	.	.	.	.
.	.	.	.	.	16cc\JJ	.	.	.	.	.	.
4D/	#	4D/	#	8.dd\L	8.a/L	4r	.	.	.	4f#X\	Zaf-
.	.	.	.	16cc#\Jk	16a/Jk	.	.	.	.	.	.
!	!	!	!	!LO:N:acc=#	!	!	!	!	!	!	!
4G\	#	4G\	#	4bn/	8g\L	(16G\LL	ho-	.	.	8g\	-fi-
.	.	.	.	.	.	16A\JJ)	.	.	.	.	.
.	.	.	.	.	8dd\J	(16G\LL	-ra	.	.	8g\	-ri
.	.	.	.	.	.	16F\JJ)	.	.	.	.	.
4E\	6	4E\	6	8cc#\L	8ee\L	(16E\LL	tor-	.	.	(16g\LL	ho-
.	.	.	.	.	.	16F\JJ)	.	.	.	16a\JJ)	.
!	!	!	!	!LO:TX:t=P:problem:kreska pseudotaktowa	!LO:TX:t=P:problem:kreska pseudotaktowa	!	!	!	!	!	!
.	.	.	.	8cc#\J	8gg\J	(16E\LL	-bi-	.	.	(16g\LL	-ra
!	!	!	!	!	!	!LO:TX:t=P:problem:kreska pseudotaktowa	!	!	!	!	!
.	.	.	.	.	.	16D\JJ)	.	.	.	16f#\JJ)	.
=29-	=29-	=29-	=29-	=29-	=29-	=29-	=29-	=29-	=29-	=29-	=29-
4C/	.	4C/	.	4.ccny\	4gg\	4C/	-do	2r	.	(16e\LL	tor-
.	.	.	.	.	.	.	.	.	.	16fny\JJ)	.
.	.	.	.	.	.	.	.	.	.	(16e\LL	-bi-
.	.	.	.	.	.	.	.	.	.	16f\JJ)	.
8FF/L	6 5	8FF/L	6 5	.	8aa\L	8FF/	hor	.	.	4d\	-do
!	!	!	!	!LO:TX:t=P:problem:# above	!	!	!	!	!	!	!
!	!	!	!	!LO:N:acc=#	!	!	!	!	!	!	!
8GG/J	#	8GG/J	#	8bn\	8gg\J	8GG/	stel-	.	.	.	.
4C/	.	4C/	.	4cc\	4gg\	8C/	-lan-	(16c\LL	ho-	8.e\	hor
.	.	.	.	.	.	.	.	16d\JJ)	.	.	.
.	.	.	.	.	.	8C/	-te	(16c\LL	-ra	.	.
.	.	.	.	.	.	.	.	16B-y\JJ)	.	16e\	stel-
!LO:TX:t=P:problem:kreska pseudotaktowa	!	!LO:TX:t=P:problem:kreska pseudotaktowa	!	!LO:TX:t=P:problem:kreska pseudotaktowa	!	!	!	!	!	!	!
4F\	.	4F\	.	4cc\	8ff\L	(16F\LL	ho-	(16A\LL	tor-	8f\	-lan-
.	.	.	.	.	.	16G\JJ)	.	16B-\JJ)	.	.	.
!	!	!	!	!	!	!	!	!	!	!LO:TX:t=P:problem:kreska pseudotaktowa	!
.	.	.	.	.	8aa\J	(16F\LL	-ra	(16A/LL	-bi-	8f\	-te
!	!	!	!	!	!LO:LB:g=original	!LO:TX:t=P:problem:kreska pseudotaktowa	!	!LO:TX:t=P:problem:kreska pseudotaktowa	!	!	!
.	.	.	.	.	.	16E\JJ)	.	16G/JJ)	.	.	.
4D/	6	4D/	6	2dd\	2bb-X\	(16D/LL	tor-	4F/	-do	(16f\LL	ho-
.	.	.	.	.	.	16E/JJ)	.	.	.	16g\JJ)	.
.	.	.	.	.	.	(16D/LL	-bi-	.	.	(16f\LL	-ra
.	.	.	.	.	.	16C/JJ)	.	.	.	16e\JJ)	.
4BB-/	.	4BB-/	.	.	.	4BB-/	-di	8.F/	hor	(16d\LL	tor-
.	.	.	.	.	.	.	.	.	.	16e\JJ)	.
.	.	.	.	.	.	.	.	.	.	(16d\LL	-bi-
.	.	.	.	.	.	.	.	16F/	stel-	16c\JJ)	.
!	!	!	!	!	!	!LO:TX:t=P:problem:kreska pseudotaktowa	!	!	!	!LO:SIC:v:t=custos d	!
2BB-/	5:6	2BB-/	5:6	16dd\LL	16bb-\LL	2r	.	4F/	-lan-	4B-/	-do
.	.	.	.	16ee\	16ccc\	.	.	.	.	.	.
.	.	.	.	16dd\	16bb-\	.	.	.	.	.	.
.	.	.	.	16cc\JJ	16aa\JJ	.	.	.	.	.	.
!	!	!	!	!	!	!	!	!	!	!LO:LB:g=original	!
!	!	!	!	!	!	!	!	!LO:SIC:v:t=custos c	!	!	!
!	!	!	!	!	!	!	!	!LO:TX:t=P:problem:kreska pseudotaktowa	!	!	!
.	.	.	.	16b/LL	16gg\LL	.	.	4G/	-te	8.d\	hor
.	.	.	.	16cc/	16aa\	.	.	.	.	.	.
.	.	.	.	16b/	16gg\	.	.	.	.	.	.
!	!	!	!	!	!	!	!	!	!	!LO:TX:t=P:problem:kreska pseudotaktowa	!
.	.	.	.	16a/JJ	16ff\JJ	.	.	.	.	16d\	stel-
!	!	!	!	!	!	!	!	!LO:LB:g=original	!	!	!
=30-	=30-	=30-	=30-	=30-	=30-	=30-	=30-	=30-	=30-	=30-	=30-
4C/	.	4C/	.	4g/	16ee\LL	(16C/LL	ho-	2r	.	4e\	-lan-
.	.	.	.	.	16ff\	16D/JJ)	.	.	.	.	.
.	.	.	.	.	16ee\	(16C/LL	-ra	.	.	.	.
.	.	.	.	.	16dd\JJ	16BB-/JJ)	.	.	.	.	.
4AA/	6	4AA/	6	(4a/	8cc\L	(16AA/LL	tor-	.	.	4f\	-te
.	.	.	.	.	.	16BB-/JJ)	.	.	.	.	.
.	.	.	.	.	16dd\L	(16AA/LL	-bi-	.	.	.	.
!	!	!	!	!	!	!LO:SIC:v:t=custos FF	!	!	!	!	!
.	.	.	.	.	16ee\JJ	16GG/JJ)	.	.	.	.	.
!	!	!	!	!	!	!LO:LB:g=original	!	!	!	!	!
!LO:SIC:v:t=custos BB-	!	!LO:SIC:v:t=custos BB-	!	!	!	!	!	!	!	!	!
2FF/	.	2FF/	.	8a/)L	4.ff\	4FF/	-do	(16c\LL	ho-	(16a\LL	ho-
.	.	.	.	.	.	.	.	16d\JJ)	.	16b-\JJ)	.
.	.	.	.	8cc/J	.	.	.	(16c\LL	-ra	(16a\LL	-ra
.	.	.	.	.	.	.	.	16B-\JJ)	.	16g\JJ)	.
.	.	.	.	4cc\	.	8FF/	hor	(16A/LL	tor-	(16f\LL	tor-
.	.	.	.	.	.	.	.	16B-/JJ)	.	16g\JJ)	.
!	!	!	!	!	!	!LO:TX:t=P:problem:kreska pseudotaktowa	!	!	!	!	!
.	.	.	.	.	8ff\	8FF/	stel-	(16A/LL	-bi-	(16f\LL	-bi-
!	!	!	!	!	!	!	!	!LO:TX:t=P:problem:kreska pseudotaktowa	!	!LO:TX:t=P:problem:kreska pseudotaktowa	!
.	.	.	.	.	.	.	.	16G/JJ)	.	16e\JJ)	.
!LO:LB:g=original	!	!LO:LB:g=original	!	!LO:LB:g=original	!	!	!	!	!	!	!
4BB-/	.	4BB-/	.	4dd\	4ff\	8BB-/	-lan-	4F/	-do	4d\	-do
.	.	.	.	.	.	8BB-/	-te	.	.	.	.
4GG/	.	4GG/	.	4b-/	4bb-\	8GG/	hor	8G/	hor	8d\	hor
.	.	.	.	.	.	8GG/	stel-	8G/	stel-	8d\	stel-
2AA/	4:3	2AA/	4:3	2a/	4r	2AA/	-la(n)-	2E/	-lan-	4.d\	-lan-
.	.	.	.	.	4ee\	.	.	.	.	.	.
.	.	.	.	.	.	.	.	.	.	(8c#X\	-te
=31-	=31-	=31-	=31-	=31-	=31-	=31-	=31-	=31-	=31-	=:||:31-	=:||:31-
!	!	!	!	!	!	!	!	!LO:TX:t=P:problem:=:||:	!	!	!
1D;	.	1D;	.	1a	1dd	1DD	-te	1F	-te	1d)	.
!LO:TX:b:i:t=Incostante	!	!	!	!	!	!	!	!	!	!	!
!LO:TX:a:t=Ten&colon;solo	!	!	!	!LO:TX:b:i:t=Incostatne	!LO:TX:b:i:t=Incostante	!	!	!LO:TX:a:t=solo	!	!LO:TX:a:t=17.	!
*met(C)	*	*met(C)	*	*met(C)	*met(C)	*met(C)	*	*met(C)	*	*met(C)	*
2D/	.	2D/	.	1r	1r	1r	.	4r	.	1r	.
.	.	.	.	.	.	.	.	8d\	In-	.	.
.	.	.	.	.	.	.	.	8e\	-co-	.	.
4D/	.	4D/	.	.	.	.	.	8f\	-stan-	.	.
.	.	.	.	.	.	.	.	8d\	-te	.	.
4E\	6	4E\	6	.	.	.	.	(16c\LL	uol-	.	.
.	.	.	.	.	.	.	.	16d\JJ)	.	.	.
.	.	.	.	.	.	.	.	(16B-\LL	-ge	.	.
!	!	!	!	!	!	!	!	!LO:TX:t=P:problem:kreska pseudotaktowa	!	!	!
.	.	.	.	.	.	.	.	16c\JJ)	.	.	.
=32-	=32-	=32-	=32-	=32-	=32-	=32-	=32-	=32-	=32-	=32-	=32-
2F\	.	2F\	.	0r	0r	0r	.	8A/	il	0r	.
.	.	.	.	.	.	.	.	8F/	ma-	.	.
.	.	.	.	.	.	.	.	8A/	-re in-	.	.
.	.	.	.	.	.	.	.	8B-\	-co-	.	.
!	!	!	!	!	!	!	!	!LO:LB:g=original	!	!	!
4F\	.	4F\	.	.	.	.	.	8c\	-stan-	.	.
.	.	.	.	.	.	.	.	8A/	-te	.	.
!LO:TX:t=P:problem:kreska pseudotaktowa	!	!LO:TX:t=P:problem:kreska pseudotaktowa	!	!	!	!	!	!	!	!	!
4BB-/	6	4BB-/	6	.	.	.	.	(16G/LL	uol-	.	.
.	.	.	.	.	.	.	.	16A/JJ)	.	.	.
.	.	.	.	.	.	.	.	(16F/LL	-ge	.	.
!	!	!	!	!	!	!	!	!LO:TX:t=P:problem:kreska pseudotaktowa	!	!	!
.	.	.	.	.	.	.	.	16G/JJ)	il	.	.
4C/	.	4C/	.	.	.	.	.	8E/	ma-	.	.
.	.	.	.	.	.	.	.	8C/	-re	.	.
4AA/	6	4AA/	6	.	.	.	.	8r	.	.	.
.	.	.	.	.	.	.	.	16F/LL	i	.	.
.	.	.	.	.	.	.	.	16E/JJ	.	.	.
4BB-/	.	4BB-/	.	.	.	.	.	16D/LL	flŭt-	.	.
.	.	.	.	.	.	.	.	16E/	.	.	.
.	.	.	.	.	.	.	.	16F/	.	.	.
.	.	.	.	.	.	.	.	16G/JJ	.	.	.
4AA/	6	4AA/	6	.	.	.	.	16A\LL	.	.	.
.	.	.	.	.	.	.	.	16B-\	.	.	.
.	.	.	.	.	.	.	.	(16c\	-ti	.	.
!	!	!	!	!	!	!	!	!LO:TX:t=P:problem:kreska pseudotaktowa	!	!	!
.	.	.	.	.	.	.	.	16d\JJ)	.	.	.
=33-	=33-	=33-	=33-	=33-	=33-	=33-	=33-	=33-	=33-	=33-	=33-
4GG/	7	4GG/	7	0r	0r	0r	.	16B-\LL	suo-	0r	.
.	.	.	.	.	.	.	.	16A\	.	.	.
.	.	.	.	.	.	.	.	16B-\	.	.	.
.	.	.	.	.	.	.	.	16c\JJ	.	.	.
4G\	6	4G\	6	.	.	.	.	4B-\	.	.	.
!LO:TX:t=P:problem:kreska pseudotaktowa	!	!LO:TX:t=P:problem:kreska pseudotaktowa	!	!	!	!	!	!	!	!	!
2F\	.	2F\	.	.	.	.	.	4A/	-i	.	.
.	.	.	.	.	.	.	.	8f\	las-	.	.
!	!	!	!	!	!	!	!	!LO:SIC:v:t=custos d	!	!	!
.	.	.	.	.	.	.	.	8e\	-cia	.	.
!	!	!	!	!	!	!	!	!LO:PB:g=original	!	!	!
4B-\	.	4B-\	.	.	.	.	.	8d\	il	.	.
.	.	.	.	.	.	.	.	8d\	so-	.	.
4G\	6\	4G\	6\	.	.	.	.	8e\	-lei-	.	.
.	.	.	.	.	.	.	.	8d\	-li-	.	.
4A\	.	4A\	.	.	.	.	.	8c\	di	.	.
.	.	.	.	.	.	.	.	8c\	Eoi	.	.
4F#X\	.	4F#X\	.	.	.	.	.	8d\	las-	.	.
!	!	!	!	!	!	!	!	!LO:TX:t=P:problem:kreska pseudotaktowa	!	!	!
.	.	.	.	.	.	.	.	8c\	-cia	.	.
=34-	=34-	=34-	=34-	=34-	=34-	=34-	=34-	=34-	=34-	=34-	=34-
4G\	-	4G\	-	0r	0r	0r	.	8B-\	so-	0r	.
.	.	.	.	.	.	.	.	8G/	-lei	.	.
4E\	6	4E\	6	.	.	.	.	8c\	li-	.	.
.	.	.	.	.	.	.	.	8B-\	-de	.	.
4Fny\	.	4Fny\	.	.	.	.	.	8A/	E-	.	.
.	.	.	.	.	.	.	.	8A/	-oi	.	.
!LO:TX:t=P:problem:kreska pseudotaktowa	!	!LO:TX:t=P:problem:kreska pseudotaktowa	!	!	!	!	!	!	!	!	!
4E\	6	4E\	6	.	.	.	.	8c\	poi	.	.
!	!	!	!	!	!	!	!	!LO:TX:t=P:problem:kreska pseudotaktowa	!	!	!
.	.	.	.	.	.	.	.	8c\	pen-	.	.
4D/	7:6	4D/	7:6	.	.	.	.	8c\	-ti-	.	.
.	.	.	.	.	.	.	.	8B-\	-to	.	.
4D/	6	4D/	6	.	.	.	.	8B-\	poi	.	.
.	.	.	.	.	.	.	.	8B-\	pen-	.	.
!	!	!	!	!	!	!	!	!LO:LB:g=original	!	!	!
4C/	7:6	4C/	7:6	.	.	.	.	8B-\	-ti-	.	.
.	.	.	.	.	.	.	.	8A/	-to	.	.
!LO:SIC:v:t=custos BB-	!	!LO:SIC:v:t=custos BB-	!	!	!	!	!	!	!	!	!
4C/	6	4C/	6	.	.	.	.	8A\L	ri-	.	.
.	.	.	.	.	.	.	.	16B-\L	.	.	.
.	.	.	.	.	.	.	.	16c\JJ	.	.	.
!LO:LB:g=original	!	!LO:LB:g=original	!	!	!	!	!	!	!	!	!
=35-	=35-	=35-	=35-	=35-	=35-	=35-	=35-	=35-	=35-	=35-	=35-
2BB-/	7 6	2BB-/	7:6	0r	0r	0r	.	16d\LL	-tor-	0r	.
.	.	.	.	.	.	.	.	16c\	.	.	.
.	.	.	.	.	.	.	.	16d\	.	.	.
.	.	.	.	.	.	.	.	16e\JJ	.	.	.
.	.	.	.	.	.	.	.	16d\LL	.	.	.
.	.	.	.	.	.	.	.	16f\	.	.	.
.	.	.	.	.	.	.	.	16e\	.	.	.
.	.	.	.	.	.	.	.	16d\JJ	.	.	.
4AA/	#	4AA/	#	.	.	.	.	8c#X\	.	.	.
.	.	.	.	.	.	.	.	8A/	-na	.	.
4FF/	.	4FF/	.	.	.	.	.	8r	.	.	.
!	!	!	!	!	!	!	!	!LO:TX:t=P:problem:kreska pseudotaktowa	!	!	!
.	.	.	.	.	.	.	.	8A/	a'	.	.
2GG/	.	2GG/	.	.	.	.	.	8B-\L	l'au-	.	.
.	.	.	.	.	.	.	.	8A\J	.	.	.
.	.	.	.	.	.	.	.	8G/	-re	.	.
.	.	.	.	.	.	.	.	8A/	a	.	.
2AA/	6:5 4:3	2AA/	6:5 4:3	.	.	.	.	16F/LL	cu-	.	.
.	.	.	.	.	.	.	.	16A/	.	.	.
.	.	.	.	.	.	.	.	16G/	.	.	.
.	.	.	.	.	.	.	.	16F/JJ	.	.	.
!	!	!	!	!	!	!	!	!LO:TX:t=P:problem:kreska pseudotaktowa	!	!	!
.	.	.	.	.	.	.	.	4E/	.	.	.
=36-	=36-	=36-	=36-	=36-	=36-	=36-	=36-	=36-	=36-	=36-	=36-
2D/	.	2D/	.	0r	0r	0r	.	4D/	-na	0r	.
.	.	.	.	.	.	.	.	8d\	poi	.	.
.	.	.	.	.	.	.	.	8d\	pen-	.	.
4E\	7:6	4E\	7:6	.	.	.	.	8d\	-ti-	.	.
.	.	.	.	.	.	.	.	8cny\	-to	.	.
!LO:TX:t=P:problem:kreska pseudotaktowa	!	!LO:TX:t=P:problem:kreska pseudotaktowa	!	!	!	!	!	!	!	!	!
4F#X\	6 5	4F#X\	6:-5	.	.	.	.	8c\	poi	.	.
!	!	!	!	!	!	!	!	!LO:SIC:v:t=custos B-	!	!	!
.	.	.	.	.	.	.	.	8d\	pen-	.	.
!	!	!	!	!	!	!	!	!LO:LB:g=original	!	!	!
4G\	.	4G\	.	.	.	.	.	8B-\	-ti-	.	.
.	.	.	.	.	.	.	.	8G/	-to	.	.
4E\	6	4E\	6	.	.	.	.	16c\LL	ri-	.	.
.	.	.	.	.	.	.	.	16d\	.	.	.
.	.	.	.	.	.	.	.	16B-\	.	.	.
.	.	.	.	.	.	.	.	16c\JJ	.	.	.
4F#\	.	4F#\	.	.	.	.	.	16A\LL	-tor-	.	.
.	.	.	.	.	.	.	.	16c\	.	.	.
.	.	.	.	.	.	.	.	16d\	.	.	.
.	.	.	.	.	.	.	.	16e\JJ	.	.	.
4AA/	6	4AA/	6	.	.	.	.	16f\LL	.	.	.
.	.	.	.	.	.	.	.	16c\	.	.	.
.	.	.	.	.	.	.	.	16d\	.	.	.
!	!	!	!	!	!	!	!	!LO:TX:t=P:problem:kreska pseudotaktowa	!	!	!
.	.	.	.	.	.	.	.	16e\JJ	.	.	.
=37-	=37-	=37-	=37-	=37-	=37-	=37-	=37-	=37-	=37-	=37-	=37-
!	!	!	!	!LO:TX:t=P:problem:kreska pseudotaktowa	!	!	!	!	!	!	!
2BB-/	5:6	2BB-/	5:6	0r	0r	0r	.	16d\LL	.	0r	.
.	.	.	.	.	.	.	.	16F\	.	.	.
.	.	.	.	.	.	.	.	16G\	.	.	.
.	.	.	.	.	.	.	.	16A\JJ	.	.	.
.	.	.	.	.	.	.	.	16B-/LL	.	.	.
.	.	.	.	.	.	.	.	16G/	.	.	.
.	.	.	.	.	.	.	.	16A/	.	.	.
.	.	.	.	.	.	.	.	16B-/JJ	.	.	.
4C/	.	4C/	.	.	.	.	.	8E/	.	.	.
.	.	.	.	.	.	.	.	8C/	-na	.	.
!LO:TX:t=P:problem:kreska pseudotaktowa	!	!LO:TX:t=P:problem:kreska pseudotaktowa	!	!	!	!	!	!	!	!	!
4AA/	6	4AA/	6	.	.	.	.	8r	.	.	.
!	!	!	!	!	!	!	!	!LO:TX:t=P:problem:kreska pseudotaktowa	!	!	!
.	.	.	.	.	.	.	.	8c\	a	.	.
2BB-/	6	2BB-/	6	.	.	.	.	8d\L	lau-	.	.
.	.	.	.	.	.	.	.	8c\J	.	.	.
.	.	.	.	.	.	.	.	8B-\	-re	.	.
.	.	.	.	.	.	.	.	8A/	a	.	.
2C/	4:3	2C/	4:3	.	.	.	.	16A\LL	cu-	.	.
.	.	.	.	.	.	.	.	16c\	.	.	.
.	.	.	.	.	.	.	.	16B-\	.	.	.
.	.	.	.	.	.	.	.	16A\JJ	.	.	.
.	.	.	.	.	.	.	.	4G/	.	.	.
=38-	=38-	=38-	=38-	=38-	=38-	=38-	=38-	=38-	=38-	=38-	=38-
2FF/	.	2FF/	.	4r	4r	0r	.	1F	-na	0r	.
.	.	.	.	8ff\L	8aa\	.	.	.	.	.	.
.	.	.	.	8ff\J	8aa\	.	.	.	.	.	.
4C/	6:5 4:3	4C/	6:5 4:3	8ff\L	8aa\L	.	.	.	.	.	.
.	.	.	.	8ee\J	8gg\	.	.	.	.	.	.
!LO:TX:t=P:problem:kreska pseudotaktowa	!	!LO:TX:t=P:problem:kreska pseudotaktowa	!	!	!	!	!	!	!	!	!
!LO:TX:t=P:problem:# below	!	!LO:TX:t=P:problem:# below	!	!LO:TX:t=P:problem:kreska pseudotaktowa	!	!	!	!	!	!	!
4C#X/	-5:6	4C#X/	-5:6	(4ee\	8gg\	.	.	.	.	.	.
!	!	!	!	!	!LO:TX:t=P:problem:kreska pseudotaktowa	!	!	!	!	!	!
.	.	.	.	.	8aa\J	.	.	.	.	.	.
2D/	9:8	2D/	9:8	8ee\L)	4ff\	.	.	1r	.	.	.
.	.	.	.	8dd\	.	.	.	.	.	.	.
.	.	.	.	8dd\	8ff\L	.	.	.	.	.	.
!	!	!	!	!	!LO:SIC:v:t=custos ff	!	!	!	!	!	!
.	.	.	.	8dd\J	8ff\J	.	.	.	.	.	.
!	!	!	!	!	!LO:LB:g=original	!	!	!	!	!	!
4A\	6:5 4:3	4A\	6:5 4:3	8dd\L	8ff\L	.	.	.	.	.	.
.	.	.	.	8cc\J	8ee\	.	.	.	.	.	.
!	!	!	!	!LO:TX:t=P:problem:kreska pseudotaktowa	!	!	!	!	!	!	!
4AA/	-5:6 -3	4AA/	-5:6 -3	(4cc\	8ee-X\	.	.	.	.	.	.
!	!	!	!	!	!LO:TX:t=P:problem:kreska pseudotaktowa	!	!	!	!	!	!
.	.	.	.	.	8ff\J	.	.	.	.	.	.
=39-	=39-	=39-	=39-	=39-	=39-	=39-	=39-	=39-	=39-	=39-	=39-
!	!	!	!	!	!	!	!	!LO:SIC:v:t=custos A	!	!	!
4BB-/	9:8	4BB-/	9:8	8cc)L	4dd\	0r	.	0r	.	0r	.
.	.	.	.	8b-\	.	.	.	.	.	.	.
4D/	6	4D/	6	8b-\	8dd\L	.	.	.	.	.	.
.	.	.	.	8b-\J	8dd\J	.	.	.	.	.	.
4E\	6 -5	4E\	6:-5	8b-/L	4cc\	.	.	.	.	.	.
.	.	.	.	8a/J	.	.	.	.	.	.	.
!LO:SIC:v:t=custos G	!	!LO:SIC:v:t=custos G	!	!LO:TX:t=P:problem:kreska pseudotaktowa	!	!	!	!	!	!	!
4F#X\	-5:6	4F#X\	-5:6	4a/	8cc\L	.	.	.	.	.	.
!	!	!	!	!	!LO:TX:t=P:problem:kreska pseudotaktowa	!	!	!	!	!	!
.	.	.	.	.	8dd\J	.	.	.	.	.	.
!LO:LB:g=original	!	!LO:LB:g=original	!	!	!	!	!	!	!	!	!
4G\	.	4G\	.	8g/L	8b-/L	.	.	.	.	.	.
.	.	.	.	8f/	8a/	.	.	.	.	.	.
4B-\	6	4B-\	6	8e/	8g/	.	.	.	.	.	.
.	.	.	.	8d/J	8f/J	.	.	.	.	.	.
4G\	6 5	4G\	6 5	4.d/	4.e/	.	.	.	.	.	.
4A\	4:3	4A\	4:3	.	.	.	.	.	.	.	.
!	!	!	!	!LO:SIC:v:t=custos d	!	!	!	!	!	!	!
!	!	!	!	!LO:TX:t=P:problem:# below	!	!	!	!	!	!	!
.	.	.	.	8c#X/	8e/	.	.	.	.	.	.
!	!	!	!	!LO:LB:g=original	!	!	!	!LO:LB:g=original	!	!	!
=40-	=40-	=40-	=40-	=40-	=40-	=40-	=40-	=40-	=40-	=40-	=40-
*M6/8	*	*M6/8	*	*M6/8	*M6/8	*M6/8	*	*M6/8	*	*M6/8	*
!LO:TX:b:i:t=Sotto la lŭna	!	!	!	!	!LO:TX:t=P:problem:kreski taktowe zgodne z metrum	!LO:TX:t=P:problem:kreski taktowe zgodne z metrum	!	!LO:TX:t=P:problem:kreski taktowe zgodne z metrum	!	!	!
!LO:TX:a:t=à 3	!	!	!	!	!	!	!	!	!	!	!
4.D/	.	4.D/	.	4.d/	4.f/	2.r	.	4.r	.	8.d\	Sot-
.	.	.	.	.	.	.	.	.	.	16e\	-to
.	.	.	.	.	.	.	.	.	.	8d\	la
!LO:TX:t=P:problem:mixed beam	!	!LO:TX:t=P:problem:mixed beam	!	!	!	!	!	!	!	!	!
8Cny/L	.	8Cny/L	.	8r	8r	.	.	8.A/	Sot-	8.a\	lŭ-
!	!	!	!	!LO:TX:t=P:problem:kreska pseudotaktowa	!	!	!	!	!	!	!
8AA/	.	8AA/	.	4r	4r	.	.	.	.	.	.
.	.	.	.	.	.	.	.	16B-\	-to	16a\	-na
!LO:TX:t=P:problem:kreska pseudotaktowa	!	!	!	!	!	!	!	!LO:TX:t=P:problem:kreska pseudotaktowa	!	!LO:SIC:v:t=custos b-	!
8A\J	.	8A\J	.	.	.	.	.	8A/	la	8a\	non
!	!	!	!	!	!	!	!	!	!	!LO:LB:g=original	!
=41-	=41-	=41-	=41-	=41-	=41-	=41-	=41-	=41-	=41-	=41-	=41-
!	!	!	!	!	!LO:TX:b:i:t=Sotto la lŭna	!	!	!	!	!	!
4.d\	6	4.d\	6	2.r	2.r	2.r	.	8.d\	lŭ-	4b-\	u'e
.	.	.	.	.	.	.	.	16d\	-na	.	.
.	.	.	.	.	.	.	.	8d\	non	8b-\	fer-
4.c\	6	4.c\	6	.	.	.	.	4c\	ue'	8.a\	-meZ-
.	.	.	.	.	.	.	.	.	.	16b-\	-Za
!	!	!	!	!	!	!	!	!LO:TX:t=P:problem:kreska pseudotaktowa	!	!LO:TX:t=P:problem:kreska pseudotaktowa	!
.	.	.	.	.	.	.	.	8c\	fer-	8a\	non
=42-	=42-	=42-	=42-	=42-	=42-	=42-	=42-	=42-	=42-	=42-	=42-
4.B-\	6	4.B-\	6	2.r	2.r	2.r	.	8.B-\	-mez-	4g\	u'e
.	.	.	.	.	.	.	.	16c\	-za	.	.
.	.	.	.	.	.	.	.	8B-\	non	8g\	non
8.A\L	.	8.A\L	.	.	.	.	.	(8.A/	ue'	8.f\	u'e
16G\K	.	16G\K	.	.	.	.	.	16G/)	.	(16e\	fer-
!LO:TX:t=P:problem:kreska pseudotaktowa	!	!LO:TX:t=P:problem:kreska pseudotaktowa	!	!	!	!	!	!LO:TX:t=P:problem:kreska pseudotaktowa	!	!LO:TX:t=P:problem:kreska pseudotaktowa	!
8Fny\J	.	8Fny\J	.	.	.	.	.	8F/	fer-	8d\)	.
=43-	=43-	=43-	=43-	=43-	=43-	=43-	=43-	=43-	=43-	=43-	=43-
*^	*	*^	*	*	*	*	*	*	*	*	*
4.E/	4.AA\	4:3	4.E/	4.AA\	4:3	2.r	2.r	8.AA/	Sot-	4.E/	-mez-	4d\	-meZ-
.	.	.	.	.	.	.	.	16BB-/	-to	.	.	.	.
.	.	.	.	.	.	.	.	8AA/	la	.	.	(8c#X\	-Za
4.D/	8ryy	.	4.D/	8ryy	.	.	.	8.D/	lŭ-	4F/	-za	4d\)	.
.	4ryy	.	.	4ryy	.	.	.	.	.	.	.	.	.
.	.	.	.	.	.	.	.	16D/	-na	.	.	.	.
!	!	!	!	!	!	!	!	!LO:TX:t=P:problem:kreska pseudotaktowa	!	!LO:TX:t=P:problem:kreska pseudotaktowa	!	!LO:TX:t=P:problem:kreska pseudotaktowa	!
.	.	.	.	.	.	.	.	8D/	non	8F/	non	8r	.
*v	*v	*	*	*	*	*	*	*	*	*	*	*	*
*	*	*v	*v	*	*	*	*	*	*	*	*	*
=44-	=44-	=44-	=44-	=44-	=44-	=44-	=44-	=44-	=44-	=44-	=44-
!	!	!	!	!	!	!	!	!LO:SIC:v:t=custos D	!	!	!
4.C/	6	4.C/	6	2.r	2.r	4C/	ŭ'e	4E/	ue'	8.A/	sot-
.	.	.	.	.	.	.	.	.	.	16B-/	-to
.	.	.	.	.	.	8C/	fer-	8r	.	8A/	la
!	!	!	!	!	!	!LO:LB:g=original	!	!	!	!	!
!LO:TX:t=P:problem:kreska pseudotaktowa	!	!LO:TX:t=P:problem:kreska pseudotaktowa	!	!	!	!	!	!LO:LB:g=original	!	!	!
4.BB-/	7:6	4.BB-/	6:7	.	.	8.BB-/	-mez-	8.D/	sot-	8.d\	lu-
.	.	.	.	.	.	(16C/	.	16E/	-to	16d\	-na
!	!	!	!	!	!	!LO:TX:t=P:problem:kreska pseudotaktowa	!	!LO:TX:t=P:problem:kreska pseudotaktowa	!	!LO:TX:t=P:problem:kreska pseudotaktowa	!
.	.	.	.	.	.	8BB-/)	.	8D/	la	8d\	non
=45-	=45-	=45-	=45-	=45-	=45-	=45-	=45-	=45-	=45-	=45-	=45-
4.AA/	.	4.AA/	.	2.r	2.r	8.AA/	.	8.A\	lŭ-	4cny/	u'è
.	.	.	.	.	.	16AA/	-za	16A\	-na	.	.
.	.	.	.	.	.	8AA/	non	8A\	non	8f\	non
4D/	6	4D/	6	.	.	4D/	ŭ'e	4B-\	ŭ'e	4f\	u'e
!	!	!	!	!	!	!LO:TX:t=P:problem:kreska pseudotaktowa	!	!LO:TX:t=P:problem:kreska pseudotaktowa	!	!LO:SIC:v:t=custos f	!
8E\	.	8E\	.	.	.	8E\	fer-	8B-\	fer-	8g\	fer-
!	!	!	!	!	!	!	!	!	!	!LO:PB:g=original	!
=46-	=46-	=46-	=46-	=46-	=46-	=46-	=46-	=46-	=46-	=46-	=46-
4.F\	.	4.F\	.	2.r	2.r	8.F\	-mez-	8.A\	-mez-	(4.f\	-meZ-
.	.	.	.	.	.	16G\	.	(16B-\	.	.	.
.	.	.	.	.	.	8A\	.	8c\)	.	.	.
!LO:TX:t=P:problem:kreska pseudotaktowa	!	!LO:TX:t=P:problem:kreska pseudotaktowa	!	!	!	!	!	!LO:TX:t=P:problem:kreska pseudotaktowa	!	!	!
!	!	!	!	!	!	!LO:TX:t=P:problem:kreska pseudotaktowa	!	!	!	!	!
4.B-\	7:6	4.B-\	7:6	.	.	4.B-\	.	4.d\	.	8f\	.
!	!	!	!	!	!	!	!	!	!	!LO:TX:t=P:problem:kreska pseudotaktowa	!
.	.	.	.	.	.	.	.	.	.	4g\)	.
=47-	=47-	=47-	=47-	=47-	=47-	=47-	=47-	=47-	=47-	=47-	=47-
4A\	#	4A\	#	2.r	2.r	4A\	-za	4c#X\	-za	4a\	-Za
8F\	.	8F\	.	.	.	8F\	non	8f\	non	8a\	non
!LO:SIC:v:t=custos F	!	!LO:SIC:v:t=custos F	!	!	!	!	!	!	!	!	!
4.C/	.	4.C/	.	.	.	4C/	úe'	4f\	ùe'	4g\	u'è
!	!	!	!	!	!	!LO:TX:t=P:problem:kreska pseudotaktowa	!	!LO:TX:t=P:problem:kreska pseudotaktowa	!	!LO:TX:t=P:problem:kreska pseudotaktowa	!
.	.	.	.	.	.	8C/	fer-	8e\	fer-	8g\	fer-
!LO:LB:g=original	!	!LO:LB:g=original	!	!	!	!	!	!	!	!	!
=48-	=48-	=48-	=48-	=48-	=48-	=48-	=48-	=48-	=48-	=48-	=48-
4.F\	.	4.F\	.	2.r	2.r	4FF/	-mez-	4f\	-mez-	4a\	-meZ-
.	.	.	.	.	.	8FF/	-za	8f\	-za	8a\	-Za,
!LO:TX:t=P:problem:kreska pseudotaktowa	!	!LO:TX:t=P:problem:kreska pseudotaktowa	!	!	!	!	!	!	!	!	!
4.F\	.	4.F\	.	.	.	8r	.	8.f\	fol-	8.a\	fol-
!	!	!	!	!	!	!LO:SIC:v:t=custos b-	!	!	!	!	!
.	.	.	.	.	.	4r	.	.	.	.	.
.	.	.	.	.	.	.	.	16e\	-le	16g\	-le
!	!	!	!	!	!	!	!	!	!	!LO:TX:t=P:problem:kreska pseudotaktowa	!
.	.	.	.	.	.	.	.	8f\	chi	8a\	-chi
!	!	!	!	!	!	!LO:PB:g=original	!	!LO:LB:g=original	!	!	!
=49-	=49-	=49-	=49-	=49-	=49-	=49-	=49-	=49-	=49-	=49-	=49-
8.B-\L	.	8.B-\L	.	2.r	2.r	8.B-\	fol-	4d\	prez-	4f\	preZ-
16A\K	.	16A\K	.	.	.	16A\	-le	.	.	.	.
8B-\J	.	8B-\J	.	.	.	8B-\	chi	8d\	-za	8f\	-Za
!	!	!	!	!	!	!LO:TX:t=P:problem:kreska pseudotaktowa	!	!	!	!	!
4.G\	.	4.G\	.	.	.	(4.G\	prez-	8.e\	fol-	8.g\	fol-
.	.	.	.	.	.	.	.	16d\	-le	16f\	-le
!	!	!	!	!	!	!	!	!LO:TX:t=P:problem:kreska pseudotaktowa	!	!LO:TX:t=P:problem:kreska pseudotaktowa	!
.	.	.	.	.	.	.	.	8e\	chi	8g\	-chi
=50-	=50-	=50-	=50-	=50-	=50-	=50-	=50-	=50-	=50-	=50-	=50-
4.A\	#	4.A\	#	2.r	2.r	4A\)	.	4c#X\	prez-	4e\	preZ-
.	.	.	.	.	.	8A\	-za	8c#\	-za	8e\	-Za
8.D\L	.	8.D\L	.	.	.	8.D/	fas-	4d\	uas-	8.f\	fas-
16E\K	.	16E\K	.	.	.	16E\	-ta	.	.	16g\	-ta
!LO:TX:t=P:problem:kreska pseudotaktowa	!	!LO:TX:t=P:problem:kreska pseudotaktowa	!	!	!	!	!	!LO:TX:t=P:problem:kreska pseudotaktowa	!	!LO:TX:t=P:problem:kreska pseudotaktowa	!
!	!	!	!	!	!	!LO:TX:t=P:problem:kreska pseudotaktowa	!	!	!	!	!
8F\J	.	8F\J	.	.	.	8F\	for-	8d\	-ta	8a\	for
=51-	=51-	=51-	=51-	=51-	=51-	=51-	=51-	=51-	=51-	=51-	=51-
!LO:TX:t=P:problem:mixed beam	!	!LO:TX:t=P:problem:mixed beam	!	!LO:TX:t=P:problem:kreska pseudotaktowa	!	!	!	!	!	!	!
8G\L	.	8G\L	.	2.r	4.r	(8G\	-tŭ-	8d\	for-	(16g\LL	for-
.	.	.	.	.	.	.	.	.	.	16f\JJ	.
8A\	4:3	8A\	4:3	.	.	4A\)	.	8.d\	-tu-	4e\)	-tŭ-
8AA/J	.	8AA/J	.	.	.	.	.	.	.	.	.
.	.	.	.	.	.	.	.	(16c#X\	-na.	.	.
!LO:TX:b:i:t=Rittornello	!	!	!	!	!	!	!	!LO:TX:t=P:problem:kreska pseudotaktowa	!	!	!
4.D/	.	4.D/	.	.	8.dd\L	4.D/	-na	4.d\)	.	4.d\	-na
.	.	.	.	.	16eeny\K	.	.	.	.	.	.
!	!	!	!	!	!LO:TX:t=P:problem:kreska pseudotaktowa	!	!	!	!	!	!
.	.	.	.	.	8dd\J	.	.	.	.	.	.
!	!	!	!	!	!	!	!	!	!	!LO:LB:g=original	!
=52-	=52-	=52-	=52-	=52-	=52-	=52-	=52-	=52-	=52-	=52-	=52-
!	!	!	!	!	!	!	!	!	!	!LO:TX:a:t=9.	!
4.C/	6	4.C/	6	8.a/L	8.aa\L	2.r	.	2.r	.	2.r	.
.	.	.	.	16b-/K	16aa\K	.	.	.	.	.	.
.	.	.	.	8a/J	8aa\J	.	.	.	.	.	.
8.BB-/L	.	8.BB-/L	.	8.dd\L	4bb-\	.	.	.	.	.	.
16AA/K	.	16AA/K	.	16dd\K	.	.	.	.	.	.	.
!LO:TX:t=P:problem:kreska pseudotaktowa	!	!LO:TX:t=P:problem:kreska pseudotaktowa	!	!LO:TX:t=P:problem:kreska pseudotaktowa	!LO:TX:t=P:problem:kreska pseudotaktowa	!	!	!	!	!	!
8GG/J	6\	8GG/J	.	8ee\J	8bb-\	.	.	.	.	.	.
=53-	=53-	=53-	=53-	=53-	=53-	=53-	=53-	=53-	=53-	=53-	=53-
4.FF/	.	4.FF/	.	4ff\	8.aa\L	2.r	.	2.r	.	2.r	.
.	.	.	.	.	16bb-\K	.	.	.	.	.	.
.	.	.	.	8ff\	8aa\J	.	.	.	.	.	.
8C/	.	8C/	.	8ee\L	8.gg\L	.	.	.	.	.	.
!LO:TX:t=P:problem:kreska pseudotaktowa	!	!LO:TX:t=P:problem:kreska pseudotaktowa	!	!	!	!	!	!	!	!	!
4AA/	.	4AA/	.	8.ff\	.	.	.	.	.	.	.
.	.	.	.	.	16aa\K	.	.	.	.	.	.
!	!	!	!	!	!LO:SIC:v:t=custos ff	!	!	!	!	!	!
.	.	.	.	.	8gg\J	.	.	.	.	.	.
!	!	!	!	!LO:TX:t=P:problem:kreska pseudotaktowa	!	!	!	!	!	!	!
.	.	.	.	16ee\Jk	.	.	.	.	.	.	.
=54-	=54-	=54-	=54-	=54-	=54-	=54-	=54-	=54-	=54-	=54-	=54-
4.BB-/	.	4.BB-/	.	8.dd\L	8.ff\L	2.r	.	2.r	.	2.r	.
.	.	.	.	16cc\K	16ee\K	.	.	.	.	.	.
.	.	.	.	8dd\J	8ff\J	.	.	.	.	.	.
4.GG/	6	4.GG/	.	8.ee\L	8.gg\L	.	.	.	.	.	.
.	.	.	.	16ff\L	16aa\L	.	.	.	.	.	.
.	.	.	.	16dd\	16ff\	.	.	.	.	.	.
!	!	!	!	!LO:TX:t=P:problem:kreska pseudotaktowa	!LO:TX:t=P:problem:kreska pseudotaktowa	!	!	!	!	!	!
.	.	.	.	16ee\JJ	16gg\JJ	.	.	.	.	.	.
=55-	=55-	=55-	=55-	=55-	=55-	=55-	=55-	=55-	=55-	=55-	=55-
4.AA/	#	4.AA/	.	8.cc#X\L	8.ee\L	2.r	.	2.r	.	2.r	.
.	.	.	.	16b-\K	16dd\K	.	.	.	.	.	.
.	.	.	.	8cc#\J	8ee\J	.	.	.	.	.	.
4.AA/	.	4.AA/	.	8r	8.aa\L	.	.	.	.	.	.
!	!	!	!	!LO:TX:t=P:problem:kreska pseudotaktowa	!	!	!	!	!	!	!
.	.	.	.	4r	.	.	.	.	.	.	.
.	.	.	.	.	16aa\K	.	.	.	.	.	.
!	!	!	!	!	!LO:TX:t=P:problem:kreska pseudotaktowa	!	!	!	!	!	!
.	.	.	.	.	8aa\J	.	.	.	.	.	.
=56-	=56-	=56-	=56-	=56-	=56-	=56-	=56-	=56-	=56-	=56-	=56-
4.D/	.	4.D/	.	8.dd\L	4ff\	2.r	.	2.r	.	2.r	.
.	.	.	.	16cc\K	.	.	.	.	.	.	.
.	.	.	.	8dd\J	8ff\	.	.	.	.	.	.
!LO:SIC:v:t=custos C	!	!LO:SIC:v:t=custos C	!	!	!	!	!	!	!	!	!
!	!	!	!	!LO:N:acc=#	!	!	!	!	!	!	!
4.GG/	.	4.GG/	.	4bn/	8.gg\L	.	.	.	.	.	.
.	.	.	.	.	16ff\K	.	.	.	.	.	.
!	!	!	!	!LO:SIC:v:t=custos cc	!LO:TX:t=P:problem:kreska pseudotaktowa	!	!	!	!	!	!
.	.	.	.	8b/	8gg\J	.	.	.	.	.	.
!LO:PB:g=original	!	!LO:PB:g=original	!	!LO:LB:g=original	!	!	!	!	!	!	!
=57-	=57-	=57-	=57-	=57-	=57-	=57-	=57-	=57-	=57-	=57-	=57-
4.C/	.	4.C/	.	8.cc\L	8.ee\L	2.r	.	2.r	.	2.r	.
.	.	.	.	16b-y\K	16dd\K	.	.	.	.	.	.
.	.	.	.	8cc\J	8ee\J	.	.	.	.	.	.
8AA/	.	8AA/	.	8cc\L	8ff\L	.	.	.	.	.	.
4C/	4:3	4C/	4:3	8.g\	8.ff\	.	.	.	.	.	.
!	!	!	!	!LO:TX:t=P:problem:kreska pseudotaktowa	!LO:TX:t=P:problem:kreska pseudotaktowa	!	!	!	!	!	!
.	.	.	.	16g\Jk	16ee\Jk	.	.	.	.	.	.
=58-	=58-	=58-	=58-	=58-	=58-	=58-	=58-	=58-	=58-	=58-	=58-
8FF/	.	8FF/	.	8a/L	8ff\L	2.r	.	2.r	.	2.r	.
4GG/	6	4GG/	6	8.g/	8.ee\	.	.	.	.	.	.
.	.	.	.	16f/Jk	16dd\Jk	.	.	.	.	.	.
!	!	!	!	!LO:TX:t=P:problem:kreska pseudotaktowa	!	!	!	!	!	!	!
4AA/	#	4AA/	#	4.e/	4.cc#X\	.	.	.	.	.	.
!LO:TX:t=P:problem:kreska pseudotaktowa	!	!LO:TX:t=P:problem:kreska pseudotaktowa	!	!	!	!	!	!	!	!	!
8GG/	.	8GG/	.	.	.	.	.	.	.	.	.
=59-	=59-	=59-	=59-	=59-	=59-	=59-	=59-	=59-	=59-	=59-	=59-
8FF/	6	8FF/	6	8f/	8dd\	2.r	.	2.r	.	2.r	.
4EE/	6\	4EE/	6\	4g/	4cc#X\	.	.	.	.	.	.
!	!	!	!	!LO:TX:t=P:problem:kreska pseudotaktowa	!	!	!	!	!	!	!
8.DD/L	.	8.DD/L	.	4.f/	4.dd\	.	.	.	.	.	.
16EE/K	.	16EE/K	.	.	.	.	.	.	.	.	.
!LO:TX:t=P:problem:kreska pseudotaktowa	!	!LO:TX:t=P:problem:kreska pseudotaktowa	!	!	!	!	!	!	!	!	!
8FF/J	.	8FF/J	.	.	.	.	.	.	.	.	.
=60-	=60-	=60-	=60-	=60-	=60-	=60-	=60-	=60-	=60-	=60-	=60-
8GG/	6 5	8GG/	6 4	8e/L	8dd\L	2.r	.	2.r	.	2.r	.
4AA/	4:3	4AA/	4:3	8.e/	8.dd\	.	.	.	.	.	.
!	!	!	!	!	!LO:TX:t=P:problem:# above	!	!	!	!	!	!
.	.	.	.	16e/Jk	16cc#X\Jk	.	.	.	.	.	.
4.D;</	.	4.D;/	.	4.f;/	4.dd;\	.	.	.	.	.	.
!	!	!	!	!	!LO:LB:g=original	!	!	!	!	!	!
=61||-	=61||-	=61||-	=61||-	=61||-	=61||-	=61||-	=61||-	=61||-	=61||-	=61||-	=61||-
*M2/1	*	*M2/1	*	*M2/1	*M2/1	*M2/1	*	*M2/1	*	*M2/1	*
*met(C)	*	*met(C)	*	*met(C)	*met(C)	*met(C)	*	*met(C)	*	*met(C)	*
!LO:TX:b:i:t=Dona	!	!	!	!	!	!	!	!	!	!	!
!LO:TX:a:t=Alto solo	!	!	!	!LO:TX:b:i:t=Dona.	!LO:TX:b:i:t=Dona	!LO:TX:a:t=Dona i legni Tacet	!	!LO:TX:a:t=Dona i legni Tacet	!	!LO:TX:b:t=solo.	!
8D\L	.	8D\L	.	0r	0r	0ryy	.	0ryy	.	2r	.
8F\	.	8F\	.	.	.	.	.	.	.	.	.
8E\	6\	8E\	6\	.	.	.	.	.	.	.	.
8D\J	.	8D\J	.	.	.	.	.	.	.	.	.
!LO:TX:t=P:problem:kreska pseudotaktowa	!	!LO:TX:t=P:problem:kreska pseudotaktowa	!	!	!	!	!	!	!	!	!
2C#X/	6	2C#X/	6	.	.	.	.	.	.	4a\	Do-
.	.	.	.	.	.	.	.	.	.	8.a\	-na
!	!	!	!	!	!	!	!	!	!	!LO:TX:t=P:problem:kreska pseudotaktowa	!
.	.	.	.	.	.	.	.	.	.	16e\	j
2D/	.	2D/	.	.	.	.	.	.	.	4f\	le-
.	.	.	.	.	.	.	.	.	.	8d\	-gni
.	.	.	.	.	.	.	.	.	.	8f\	a
4BB-/	6	4BB-/	6	.	.	.	.	.	.	8g\L	l'aú-
.	.	.	.	.	.	.	.	.	.	8a\J	.
4C#/	7 3	4C#/	7 3	.	.	.	.	.	.	8b-\	-ra
!	!	!	!	!	!	!	!	!	!	!LO:TX:t=P:problem:kreska pseudotaktowa	!
.	.	.	.	.	.	.	.	.	.	8a\	in-
=62-	=62-	=62-	=62-	=62-	=62-	=62-	=62-	=62-	=62-	=62-	=62-
2F\	.	2F\	.	0r	0r	0ryy	.	0ryy	.	4a\	-fi-
.	.	.	.	.	.	.	.	.	.	4a\	-da
!	!	!LO:SIC:v:t=custos A	!	!	!	!	!	!	!	!	!
2G\	6\	2G\	6\	.	.	.	.	.	.	4.e\	si-
.	.	.	.	.	.	.	.	.	.	16f\LL	-ti
!	!	!	!	!	!	!	!	!	!	!LO:TX:t=P:problem:kreska pseudotaktowa	!
.	.	.	.	.	.	.	.	.	.	16g\JJ	.
!	!	!LO:LB:g=original	!	!	!	!	!	!	!	!	!
2A\	#	2A\	#	.	.	.	.	.	.	8c#X/	bon-
.	.	.	.	.	.	.	.	.	.	(16c#/LL	-da
.	.	.	.	.	.	.	.	.	.	16B-/JJ	.
.	.	.	.	.	.	.	.	.	.	4A/)	.
!LO:SIC:v:t=custos A	!	!	!	!	!	!	!	!	!	!	!
2B-\	7:6	2B-\	7:6	.	.	.	.	.	.	16d\LL	di-
!	!	!	!	!	!	!	!	!	!	!LO:TX:t=P:problem:# above	!
.	.	.	.	.	.	.	.	.	.	16c#X\	.
.	.	.	.	.	.	.	.	.	.	16d\	.
.	.	.	.	.	.	.	.	.	.	16e\JJ	.
.	.	.	.	.	.	.	.	.	.	16d\LL	-te-
.	.	.	.	.	.	.	.	.	.	16f\	.
.	.	.	.	.	.	.	.	.	.	16e\	.
!	!	!	!	!	!	!	!	!	!	!LO:TX:t=P:problem:kreska pseudotaktowa	!
.	.	.	.	.	.	.	.	.	.	16d\JJ	.
!LO:LB:g=original	!	!	!	!	!	!	!	!	!	!	!
=63-	=63-	=63-	=63-	=63-	=63-	=63-	=63-	=63-	=63-	=63-	=63-
4.A\	.	4.A\	.	0r	0r	0ryy	.	0ryy	.	8.c#X/	-so-
.	.	.	.	.	.	.	.	.	.	(16B-/	-ro
!	!	!	!	!	!	!	!	!	!	!LO:SIC:v:t=custos d	!
.	.	.	.	.	.	.	.	.	.	4A/)	.
8G\	.	8G\	.	.	.	.	.	.	.	.	.
!	!	!	!	!	!	!	!	!	!	!LO:LB:g=original	!
2F#X\	6	2F#X\	6	.	.	.	.	.	.	4r	.
.	.	.	.	.	.	.	.	.	.	8d\	buo-
!	!	!	!	!	!	!	!	!	!	!LO:TX:t=P:problem:kreska pseudotaktowa	!
.	.	.	.	.	.	.	.	.	.	8c#/	-ni
4G\	.	4G\	.	.	.	.	.	.	.	8B-/	ar-
.	.	.	.	.	.	.	.	.	.	8d\	-di-
4E\	6	4E\	6	.	.	.	.	.	.	16c#/LL	ta
.	.	.	.	.	.	.	.	.	.	16d/JJ	è
.	.	.	.	.	.	.	.	.	.	16c#/LL	rub-
.	.	.	.	.	.	.	.	.	.	16B-/JJ	-ba
4F#\	.	4F#\	.	.	.	.	.	.	.	8A/	lo-
.	.	.	.	.	.	.	.	.	.	8F/	-ro
4AA/	6	4AA/	6	.	.	.	.	.	.	8.f\	chè
!	!	!	!	!	!	!	!	!	!	!LO:TX:t=P:problem:kreska pseudotaktowa	!
.	.	.	.	.	.	.	.	.	.	16c#/	-da
=64-	=64-	=64-	=64-	=64-	=64-	=64-	=64-	=64-	=64-	=64-	=64-
2BB-/	5:6	2BB-/	5:6	0r	0r	0ryy	.	0ryy	.	4d\	uoi
.	.	.	.	.	.	.	.	.	.	8.b-\	che-
.	.	.	.	.	.	.	.	.	.	16d\	-da
4Cny/	.	4Cny/	.	.	.	.	.	.	.	16e\	uoi
.	.	.	.	.	.	.	.	.	.	16cny\LL	te
.	.	.	.	.	.	.	.	.	.	16d\	.
.	.	.	.	.	.	.	.	.	.	16e\JJ	.
!LO:TX:t=P:problem:kreska pseudotaktowa	!	!LO:TX:t=P:problem:kreska pseudotaktowa	!	!	!	!	!	!	!	!	!
4AA/	.	4AA/	.	.	.	.	.	.	.	8f\	.
.	.	.	.	.	.	.	.	.	.	16f\	ti
!	!	!	!	!	!	!	!	!	!	!LO:TX:t=P:problem:kreska pseudotaktowa	!
.	.	.	.	.	.	.	.	.	.	16g\	di-
4FF/	.	4FF/	.	.	.	.	.	.	.	16a\LL	-ui-
.	.	.	.	.	.	.	.	.	.	16cc\	.
.	.	.	.	.	.	.	.	.	.	16b-\	.
.	.	.	.	.	.	.	.	.	.	16a\JJ	.
8BB-/L	6 5	8BB-/L	.	.	.	.	.	.	.	4g\	.
8C/J	.	8C/J	.	.	.	.	.	.	.	.	.
!LO:TX:t=P:problem:mixed beam	!	!LO:TX:t=P:problem:mixed beam	!	!	!	!	!	!	!	!	!
8Fny\L	.	8Fny\L	.	.	.	.	.	.	.	4f\	-de
8FF/	.	8FF/	.	.	.	.	.	.	.	.	.
8GG/	.	8GG/	.	.	.	.	.	.	.	4r	.
!LO:TX:t=P:problem:kreska pseudotaktowa	!	!LO:TX:t=P:problem:kreska pseudotaktowa	!	!	!	!	!	!	!	!	!
8AA/J	.	8AA/J	.	.	.	.	.	.	.	.	.
!	!	!	!	!	!	!	!	!	!	!LO:LB:g=original	!
=65-	=65-	=65-	=65-	=65-	=65-	=65-	=65-	=65-	=65-	=65-	=65-
4BB-/	.	4BB-/	.	0r	0r	0ryy	.	0ryy	.	2r	.
4C/	.	4C/	.	.	.	.	.	.	.	.	.
4F\	.	4F\	.	.	.	.	.	.	.	16f\LL	lie-
.	.	.	.	.	.	.	.	.	.	16g\	.
.	.	.	.	.	.	.	.	.	.	16a\	.
.	.	.	.	.	.	.	.	.	.	16b-\JJ	.
!LO:TX:t=P:problem:kreska pseudotaktowa	!	!LO:TX:t=P:problem:kreska pseudotaktowa	!	!	!	!	!	!	!	!	!
4E\	6	4E\	6	.	.	.	.	.	.	8cc\	.
!	!	!	!	!	!	!	!	!	!	!LO:TX:t=P:problem:kreska pseudotaktowa	!
.	.	.	.	.	.	.	.	.	.	8c/	-to
2D/	7:6	2D/	7:6	.	.	.	.	.	.	16f\LL	ri-
.	.	.	.	.	.	.	.	.	.	16e\	.
.	.	.	.	.	.	.	.	.	.	16f\	.
.	.	.	.	.	.	.	.	.	.	16g\JJ	.
.	.	.	.	.	.	.	.	.	.	16f\LL	.
.	.	.	.	.	.	.	.	.	.	16a\	.
.	.	.	.	.	.	.	.	.	.	16g\	.
.	.	.	.	.	.	.	.	.	.	16f\JJ	.
4C/	.	4C/	.	.	.	.	.	.	.	8e\	.
.	.	.	.	.	.	.	.	.	.	8c/	-de
4AA/	.	4AA/	.	.	.	.	.	.	.	8.f\	ma
!	!	!	!	!	!	!	!	!	!	!LO:TX:t=P:problem:kreska pseudotaktowa	!
.	.	.	.	.	.	.	.	.	.	16e\	cbe
=66-	=66-	=66-	=66-	=66-	=66-	=66-	=66-	=66-	=66-	=66-	=66-
4BB-/	.	4BB-/	.	0r	0r	0ryy	.	0ryy	.	(4d\	pro-
4E\	6	4E\	6	.	.	.	.	.	.	8.c/)	.
.	.	.	.	.	.	.	.	.	.	16B-/	-ŭe
4.F\	.	4.F\	.	.	.	.	.	.	.	4A/	cbe
.	.	.	.	.	.	.	.	.	.	8r	.
!	!	!LO:SIC:v:t=custos B-	!	!	!	!	!	!	!	!LO:TX:t=P:problem:kreska pseudotaktowa	!
8F\	.	8F\	.	.	.	.	.	.	.	8a\	pro-
!	!	!LO:LB:g=original	!	!	!	!	!	!	!	!	!
2B-\	7:6	2B-\	7:6	.	.	.	.	.	.	8a\	-ue
.	.	.	.	.	.	.	.	.	.	8g\	ne-
.	.	.	.	.	.	.	.	.	.	8g\	-ve
.	.	.	.	.	.	.	.	.	.	8g\	o
!LO:SIC:v:t=custos G	!	!	!	!	!	!	!	!	!	!	!
2A\	7:6	2A\	7:6	.	.	.	.	.	.	8g\	il
.	.	.	.	.	.	.	.	.	.	8f\	ven-
.	.	.	.	.	.	.	.	.	.	8f\	-to a
.	.	.	.	.	.	.	.	.	.	8f\	spo-
!LO:LB:g=original	!	!	!	!	!	!	!	!	!	!LO:LB:g=original	!
=67-	=67-	=67-	=67-	=67-	=67-	=67-	=67-	=67-	=67-	=67-	=67-
2G\	7:6	2G\	7:6	0r	0r	0ryy	.	0ryy	.	8f\	-lia-
.	.	.	.	.	.	.	.	.	.	8e\	-rlo
.	.	.	.	.	.	.	.	.	.	8e\	in
.	.	.	.	.	.	.	.	.	.	8e\	mo-
2F\	7:6	2F\	7:6	.	.	.	.	.	.	8e\	-men-
.	.	.	.	.	.	.	.	.	.	8d\	-to
.	.	.	.	.	.	.	.	.	.	8r	.
!	!	!	!	!	!	!	!	!	!	!LO:TX:t=P:problem:kreska pseudotaktowa	!
.	.	.	.	.	.	.	.	.	.	8d\	del
2E\	7:6	2E\	7:6	.	.	.	.	.	.	(8e\L	gia
.	.	.	.	.	.	.	.	.	.	8f\J)	.
.	.	.	.	.	.	.	.	.	.	(8g\L	a-
.	.	.	.	.	.	.	.	.	.	8a\J)	.
4D/	.	4D/	.	.	.	.	.	.	.	8f\	-mi-
.	.	.	.	.	.	.	.	.	.	8g\	-co
!LO:TX:t=P:problem:kreska pseudotaktowa	!	!LO:TX:t=P:problem:kreska pseudotaktowa	!	!	!	!	!	!	!	!	!
4C/	6	4C/	6	.	.	.	.	.	.	8a\	o-
!	!	!	!	!	!	!	!	!	!	!LO:TX:t=P:problem:kreska pseudotaktowa	!
.	.	.	.	.	.	.	.	.	.	8A/	-ce-
=68-	=68-	=68-	=68-	=68-	=68-	=68-	=68-	=68-	=68-	=68-	=68-
2BB-/	7:6	2BB-/	7:6	0r	0r	0ryy	.	0ryy	.	8d\L	-a-
.	.	.	.	.	.	.	.	.	.	16e\L	.
.	.	.	.	.	.	.	.	.	.	16f\JJ	.
.	.	.	.	.	.	.	.	.	.	8.e\	.
.	.	.	.	.	.	.	.	.	.	(16d\	-no
4AA/	#	4AA/	#	.	.	.	.	.	.	4c#X/)	.
4FF#X/	6	4FF#X/	6	.	.	.	.	.	.	16d\LL	l'on-
.	.	.	.	.	.	.	.	.	.	16e\	.
.	.	.	.	.	.	.	.	.	.	16c#\	.
!	!	!	!	!	!	!	!	!	!	!LO:TX:t=P:problem:kreska pseudotaktowa	!
.	.	.	.	.	.	.	.	.	.	16d\JJ	.
2GG/	.	2GG/	.	.	.	.	.	.	.	4B-/	.
.	.	.	.	.	.	.	.	.	.	8cny/	-da-
.	.	.	.	.	.	.	.	.	.	8d\	-ra
!	!	!	!	!	!	!	!	!	!	!LO:SIC:v:t=custos G	!
!	!	!	!	!	!	!	!	!	!	!LO:TX:t=P:problem:kreska pseudotaktowa	!
4C/	6 5	4C/	6 5	.	.	.	.	.	.	2A/	du-
!LO:TX:t=P:problem:kreska pseudotaktowa	!	!LO:TX:t=P:problem:kreska pseudotaktowa	!	!	!	!	!	!	!	!	!
4D/	#	4D/	#	.	.	.	.	.	.	.	.
!	!	!	!	!	!	!	!	!	!	!LO:LB:g=original	!
=69-	=69-	=69-	=69-	=69-	=69-	=69-	=69-	=69-	=69-	=69-	=69-
4GG/	.	4GG/	.	0r	0r	0ryy	.	0ryy	.	8G/	-na
.	.	.	.	.	.	.	.	.	.	16g\LL	l'on-
.	.	.	.	.	.	.	.	.	.	16f\JJ	.
!LO:N:acc=#:global	!	!LO:N:acc=#:global	!	!	!	!	!	!	!	!	!
4BBn/	6	4BBn/	6	.	.	.	.	.	.	16g\LL	.
.	.	.	.	.	.	.	.	.	.	16d\	.
.	.	.	.	.	.	.	.	.	.	16e\	.
.	.	.	.	.	.	.	.	.	.	16f\JJ	.
4C/	.	4C/	.	.	.	.	.	.	.	16e\LL	.
.	.	.	.	.	.	.	.	.	.	16c\	.
.	.	.	.	.	.	.	.	.	.	16cc\	.
.	.	.	.	.	.	.	.	.	.	16b-\JJ	.
4E\	6	4E\	6	.	.	.	.	.	.	16cc\LL	.
.	.	.	.	.	.	.	.	.	.	16g\	.
.	.	.	.	.	.	.	.	.	.	16a\	.
!	!	!	!	!	!	!	!	!	!	!LO:TX:t=P:problem:kreska pseudotaktowa	!
.	.	.	.	.	.	.	.	.	.	16b-\JJ	.
4F\	.	4F\	.	.	.	.	.	.	.	8a\L	.
.	.	.	.	.	.	.	.	.	.	16f\L	.
.	.	.	.	.	.	.	.	.	.	16e\JJ	.
4A\	6	4A\	6	.	.	.	.	.	.	16f\LL	.
.	.	.	.	.	.	.	.	.	.	16c\	.
.	.	.	.	.	.	.	.	.	.	16d\	.
.	.	.	.	.	.	.	.	.	.	16e\JJ	.
4B-\	.	4B-\	.	.	.	.	.	.	.	4d\	.
!LO:TX:t=P:problem:kreska pseudotaktowa	!	!LO:TX:t=P:problem:kreska pseudotaktowa	!	!	!	!	!	!	!	!	!
4G\	.	4G\	.	.	.	.	.	.	.	8g\	-da-
!	!	!	!	!	!	!	!	!	!	!LO:TX:t=P:problem:kreska pseudotaktowa	!
.	.	.	.	.	.	.	.	.	.	8a\	-ra
=70-	=70-	=70-	=70-	=70-	=70-	=70-	=70-	=70-	=70-	=70-	=70-
!	!	!	!	!LO:TX:t=P:problem:kreska pseudotaktowa	!	!	!	!	!	!	!
4A\	#	4A\	#	1r	1r	0ryy	.	0ryy	.	8c#X/L	.
.	.	.	.	.	.	.	.	.	.	8A/J	.
4F\	6	4F\	6	.	.	.	.	.	.	[4d\	.
4G\	6 5	4G\	6 5	.	.	.	.	.	.	4.d]	.
4A\	.	4A\	.	.	.	.	.	.	.	.	.
.	.	.	.	.	.	.	.	.	.	16e\LL	.
.	.	.	.	.	.	.	.	.	.	16f\JJ	.
2D/	.	2D/	.	8r	2r	.	.	.	.	2d\	.
.	.	.	.	8dd\	.	.	.	.	.	.	.
.	.	.	.	8cc\L	.	.	.	.	.	.	.
.	.	.	.	16dd\L	.	.	.	.	.	.	.
.	.	.	.	16cc\JJ	.	.	.	.	.	.	.
!	!	!	!	!LO:SIC:v:t=custos cc	!	!	!	!	!	!	!
!	!	!LO:SIC:v:t=custos C	!	!LO:TX:t=P:problem:kreska pseudotaktowa	!	!	!	!	!	!	!
2G\	.	2G\	.	2b-/	8r	.	.	.	.	2r	.
.	.	.	.	.	8gg\	.	.	.	.	.	.
.	.	.	.	.	8gg\L	.	.	.	.	.	.
.	.	.	.	.	16gg\L	.	.	.	.	.	.
!	!	!	!	!	!LO:TX:t=P:problem:kreska pseudotaktowa	!	!	!	!	!	!
.	.	.	.	.	16ff\JJ	.	.	.	.	.	.
!	!	!LO:LB:g=original	!	!LO:LB:g=original	!	!	!	!	!	!	!
=71-	=71-	=71-	=71-	=71-	=71-	=71-	=71-	=71-	=71-	=71-	=71-
2C/	.	2C/	.	8r	2ee\	0ryy	.	0ryy	.	0r	.
.	.	.	.	8cc\	.	.	.	.	.	.	.
.	.	.	.	8b-\L	.	.	.	.	.	.	.
.	.	.	.	16cc\L	.	.	.	.	.	.	.
.	.	.	.	16b-\JJ	.	.	.	.	.	.	.
!LO:SIC:v:t=custos BB- 	!	!	!	!	!	!	!	!	!	!	!
2F\	.	2F\	.	4.a/	8r	.	.	.	.	.	.
.	.	.	.	.	8ff\	.	.	.	.	.	.
.	.	.	.	.	8ee-X\L	.	.	.	.	.	.
!	!	!	!	!LO:TX:t=P:problem:kreska pseudotaktowa	!	!	!	!	!	!	!
.	.	.	.	8a/	16ff\L	.	.	.	.	.	.
!	!	!	!	!	!LO:TX:t=P:problem:kreska pseudotaktowa	!	!	!	!	!	!
.	.	.	.	.	16ee-\JJ	.	.	.	.	.	.
!LO:LB:g=original	!	!	!	!	!	!	!	!	!	!	!
2BB-y/	.	2BB-y/	.	8b-/L	2dd\	.	.	.	.	.	.
.	.	.	.	8f/	.	.	.	.	.	.	.
.	.	.	.	8g/	.	.	.	.	.	.	.
.	.	.	.	8d/J	.	.	.	.	.	.	.
4C/	.	4C/	.	4e/	8r	.	.	.	.	.	.
.	.	.	.	.	8ccny\L	.	.	.	.	.	.
!	!	!	!	!LO:TX:t=P:problem:kreska pseudotaktowa	!	!	!	!	!	!	!
4BB-/	6	4BB-/	6 5	4f/	8dd\	.	.	.	.	.	.
!	!	!	!	!	!LO:TX:t=P:problem:kreska pseudotaktowa	!	!	!	!	!	!
.	.	.	.	.	8g\J	.	.	.	.	.	.
=72-	=72-	=72-	=72-	=72-	=72-	=72-	=72-	=72-	=72-	=72-	=72-
2C/	.	2C/	.	4.f/	4.g/	0ryy	.	0ryy	.	0r	.
.	.	.	.	8e/	8g/	.	.	.	.	.	.
!LO:TX:t=P:problem:kreska pseudotaktowa	!	!LO:TX:t=P:problem:kreska pseudotaktowa	!	!LO:TX:t=P:problem:mixed beam	!LO:TX:t=P:problem:mixed beam	!	!	!	!	!	!
2F\	.	2F\	.	8f/L	8a\L	.	.	.	.	.	.
.	.	.	.	8ff\J	8aa\J	.	.	.	.	.	.
.	.	.	.	8ee\L	8gg\L	.	.	.	.	.	.
.	.	.	.	16ff\L	16aa\L	.	.	.	.	.	.
!	!	!	!	!LO:TX:t=P:problem:kreska pseudotaktowa	!LO:TX:t=P:problem:kreska pseudotaktowa	!	!	!	!	!	!
.	.	.	.	16gg\JJ	16gg\JJ	.	.	.	.	.	.
8r	.	8r	.	2dd\	2ff\	.	.	.	.	.	.
8B-\	.	8B-\	.	.	.	.	.	.	.	.	.
8A\L	.	8A\L	.	.	.	.	.	.	.	.	.
16B-\L	.	16B-\L	.	.	.	.	.	.	.	.	.
16A\JJ	.	16A\JJ	.	.	.	.	.	.	.	.	.
!LO:TX:t=P:problem:kreska pseudotaktowa	!	!LO:TX:t=P:problem:kreska pseudotaktowa	!	!	!	!	!	!	!	!	!
2G\	6\	2G\	6\	8r	8r	.	.	.	.	.	.
.	.	.	.	8ee\	8gg\	.	.	.	.	.	.
.	.	.	.	8dd\L	8ff\L	.	.	.	.	.	.
.	.	.	.	16ee\L	16gg\L	.	.	.	.	.	.
!	!	!	!	!LO:TX:t=P:problem:kreska pseudotaktowa	!LO:SIC:v:t=custos ee	!	!	!	!	!	!
.	.	.	.	16dd\JJ	16ff\JJ	.	.	.	.	.	.
!	!	!	!	!	!LO:LB:g=original	!	!	!	!	!	!
=73-	=73-	=73-	=73-	=73-	=73-	=73-	=73-	=73-	=73-	=73-	=73-
4A\	#	4A\	#	4cc#X\	4eeny\	0ryy	.	0ryy	.	0r	.
4F\	6	4F\	6	4dd\	4ff\	.	.	.	.	.	.
4G\	6 5	4G\	6 5	4.dd\	4.ee\	.	.	.	.	.	.
4A\	#	4A\	#	.	.	.	.	.	.	.	.
!	!	!	!	!LO:TX:t=P:problem:# above	!	!	!	!	!	!	!
.	.	.	.	8cc#X\	8ee\	.	.	.	.	.	.
1D;	.	1D;	.	1dd	1dd	.	.	.	.	.	.
!	!	!	!	!	!	!LO:LB:g=original	!	!	!	!	!
=74:||:	=74:||:	=74:||:	=74:||:	=74:||:	=74:||:	=74:||:	=74:||:	=74:||:	=74:||:	=74:||:	=74:||:
*M2/1	*	*M2/1	*	*M2/1	*M2/1	*M2/1	*	*M2/1	*	*M2/1	*
*met(C)	*	*met(C)	*	*met(C)	*met(C)	*met(C)	*	*met(C)	*	*met(C)	*
!LO:TX:b:i:t=Altri Cerebi	!	!	!	!	!	!	!	!	!	!	!
!LO:TX:a:t=Basso solo	!	!	!	!	!LO:TX:b:i:t=Altri cerebi	!LO:TX:a:t=Solo	!	!LO:TX:a:t=Altri cerebi\nTacet	!	!LO:TX:a:t=Altri cerebi\nTacet	!
2D/	.	2D/	.	0r	0r	8D\L	Al-	0ryy	.	0ryy	.
.	.	.	.	.	.	8E\J	.	.	.	.	.
.	.	.	.	.	.	16F\LL	-tri	.	.	.	.
.	.	.	.	.	.	16E\J	.	.	.	.	.
.	.	.	.	.	.	8D\J	.	.	.	.	.
2A\	.	2A\	.	.	.	4.A\	cer-	.	.	.	.
.	.	.	.	.	.	8AA/	-chi	.	.	.	.
2B-\	7:6	2B-\	7:6	.	.	4.B-\	al-	.	.	.	.
.	.	.	.	.	.	16c\	-tri	.	.	.	.
.	.	.	.	.	.	16B-\	me-	.	.	.	.
4.A\	#	4.A\	#	.	.	16A\LL	-mo-	.	.	.	.
.	.	.	.	.	.	16G\	.	.	.	.	.
.	.	.	.	.	.	16A\	.	.	.	.	.
.	.	.	.	.	.	16B-\JJ	.	.	.	.	.
.	.	.	.	.	.	8A\	.	.	.	.	.
!LO:TX:t=P:problem:kreska pseudotaktowa	!	!	!	!	!	!	!	!	!	!	!
8G\	.	8G\	.	.	.	8G\	-rie	.	.	.	.
=75-	=75-	=75-	=75-	=75-	=75-	=75-	=75-	=75-	=75-	=75-	=75-
4.F\	6	4.F\	.	0r	0r	16F\LL	fra	0ryy	.	0ryy	.
.	.	.	.	.	.	16E\	.	.	.	.	.
.	.	.	.	.	.	16F\	.	.	.	.	.
.	.	.	.	.	.	16G\JJ	.	.	.	.	.
.	.	.	.	.	.	8F\	.	.	.	.	.
8E\	6\	8E\	.	.	.	8E\	le	.	.	.	.
4.D/	.	4.D/	.	.	.	4D/	stra-	.	.	.	.
.	.	.	.	.	.	8D/	-gi	.	.	.	.
!	!	!LO:SIC:v:t=custos BB-	!	!	!	!	!	!	!	!	!
8C/	.	8C/	.	.	.	8C/	e'	.	.	.	.
!	!	!LO:LB:g=original	!	!	!	!	!	!	!	!	!
2BB-/	7:6	2BB-/	7:6	.	.	4.BB-/	fra-	.	.	.	.
.	.	.	.	.	.	8AA/	-le	.	.	.	.
!LO:SIC:v:t=custos AA	!	!	!	!	!	!LO:LB:g=original	!	!	!	!	!
2AA/	.	2AA/	.	.	.	2CC/	mor-	.	.	.	.
!LO:LB:g=original	!	!	!	!	!	!	!	!	!	!	!
=76-	=76-	=76-	=76-	=76-	=76-	=76-	=76-	=76-	=76-	=76-	=76-
4AA/	#	4AA/	#	0r	0r	2CC/	-ti	0ryy	.	0ryy	.
8A\L	.	8A\L	.	.	.	.	.	.	.	.	.
8G\J	.	8G\J	.	.	.	.	.	.	.	.	.
2.F\	.	2.F\	.	.	.	4r	.	.	.	.	.
.	.	.	.	.	.	8F\	et	.	.	.	.
.	.	.	.	.	.	8G\	ogn'-	.	.	.	.
.	.	.	.	.	.	16A\LL	-hor-	.	.	.	.
.	.	.	.	.	.	16B-\	.	.	.	.	.
.	.	.	.	.	.	16A\	.	.	.	.	.
.	.	.	.	.	.	16B-\JJ	.	.	.	.	.
4E\	6	4E\	6	.	.	8c\	.	.	.	.	.
.	.	.	.	.	.	8C/	-ra	.	.	.	.
!LO:TX:t=P:problem:kreska pseudotaktowa	!	!LO:TX:t=P:problem:kreska pseudotaktowa	!	!	!	!	!	!	!	!	!
2D/	7:6	2D/	7:6	.	.	4F\	hab-	.	.	.	.
.	.	.	.	.	.	16G\LL	-bia	.	.	.	.
.	.	.	.	.	.	16A\JJ	.	.	.	.	.
.	.	.	.	.	.	16G\LL	con-	.	.	.	.
.	.	.	.	.	.	16F\JJ	.	.	.	.	.
=77-	=77-	=77-	=77-	=77-	=77-	=77-	=77-	=77-	=77-	=77-	=77-
4.C/	.	4.C/	.	0r	0r	8.E\	-sor-	0ryy	.	0ryy	.
.	.	.	.	.	.	(16D/	-ti	.	.	.	.
.	.	.	.	.	.	4C/)	.	.	.	.	.
8BB-/	.	8BB-/	.	.	.	.	.	.	.	.	.
2AA/	6	2AA/	6	.	.	4r	.	.	.	.	.
.	.	.	.	.	.	8F\	le	.	.	.	.
.	.	.	.	.	.	8E\	bat-	.	.	.	.
4.BB-/	.	4.BB-/	.	.	.	8D/L	-ta-	.	.	.	.
.	.	.	.	.	.	8BB-/J	.	.	.	.	.
.	.	.	.	.	.	4B-\	.	.	.	.	.
8C/	.	8C/	.	.	.	.	.	.	.	.	.
!LO:TX:t=P:problem:kreska pseudotaktowa	!	!LO:TX:t=P:problem:kreska pseudotaktowa	!	!	!	!	!	!	!	!	!
2D/	6\	2D/	6\	.	.	8B-\L	.	.	.	.	.
.	.	.	.	.	.	16A\L	.	.	.	.	.
.	.	.	.	.	.	16B-\JJ	.	.	.	.	.
.	.	.	.	.	.	16G\LL	.	.	.	.	.
.	.	.	.	.	.	16A\	.	.	.	.	.
.	.	.	.	.	.	16F\	.	.	.	.	.
.	.	.	.	.	.	16G\JJ	.	.	.	.	.
!	!	!	!	!	!	!LO:LB:g=original	!	!	!	!	!
=78-	=78-	=78-	=78-	=78-	=78-	=78-	=78-	=78-	=78-	=78-	=78-
4C/	.	4C/	.	0r	0r	8E\	.	0ryy	.	0ryy	.
.	.	.	.	.	.	8C/	-glie	.	.	.	.
2EE/	6	2EE/	6	.	.	2G\	e'	.	.	.	.
4FF/	.	4FFny/	.	.	.	8F\	le	.	.	.	.
.	.	.	.	.	.	8E\	uit-	.	.	.	.
2GG/	4:3	2GG/	4:3	.	.	16E\LL	-to-	.	.	.	.
.	.	.	.	.	.	16G\	.	.	.	.	.
.	.	.	.	.	.	16F\	.	.	.	.	.
.	.	.	.	.	.	16E\JJ	.	.	.	.	.
.	.	.	.	.	.	8.D/L	.	.	.	.	.
.	.	.	.	.	.	16C/Jk	.	.	.	.	.
4.C/	.	4.C/	.	.	.	2C/	-rie	.	.	.	.
!LO:TX:t=P:problem:kreska pseudotaktowa	!	!LO:TX:t=P:problem:kreska pseudotaktowa	!	!	!	!	!	!	!	!	!
8D/	.	8D/	.	.	.	.	.	.	.	.	.
=79-	=79-	=79-	=79-	=79-	=79-	=79-	=79-	=79-	=79-	=79-	=79-
8E\L	.	8E\L	.	0r	0r	2r	.	0ryy	.	0ryy	.
8D\	.	8D\	.	.	.	.	.	.	.	.	.
8C\	.	8C\	.	.	.	.	.	.	.	.	.
8BB-\J	.	8BB-\J	.	.	.	.	.	.	.	.	.
2AA/	6	2AA/	6	.	.	4r	.	.	.	.	.
.	.	.	.	.	.	8F\	le	.	.	.	.
.	.	.	.	.	.	8F\	sue	.	.	.	.
4BB-/	.	4BB-/	.	.	.	16F\LL	glo-	.	.	.	.
.	.	.	.	.	.	16E\	.	.	.	.	.
.	.	.	.	.	.	16F\	.	.	.	.	.
.	.	.	.	.	.	16G\JJ	.	.	.	.	.
4AA/	6	4AA/	6	.	.	8F\	.	.	.	.	.
.	.	.	.	.	.	8F\	-rie	.	.	.	.
!LO:TX:t=P:problem:kreska pseudotaktowa	!	!LO:SIC:v:t=custos FF	!	!	!	!	!	!	!	!	!
2GG/	7:6	2GG/	7:6	.	.	4G\	ec-	.	.	.	.
.	.	.	.	.	.	8A\	-co	.	.	.	.
!	!	!	!	!	!	!LO:SIC:v:t=custos A	!	!	!	!	!
.	.	.	.	.	.	8B-\	os-	.	.	.	.
!	!	!LO:LB:g=original	!	!	!	!LO:LB:g=original	!	!	!	!	!
=80-	=80-	=80-	=80-	=80-	=80-	=80-	=80-	=80-	=80-	=80-	=80-
4.FF/	.	4.FF/	.	0r	0r	8.A\	-cu-	0ryy	.	0ryy	.
.	.	.	.	.	.	(16G\	-ra	.	.	.	.
.	.	.	.	.	.	8F\)	.	.	.	.	.
8D/	6	8D/	.	.	.	8D/	ŭn	.	.	.	.
4E-X\	.	4E-X\	.	.	.	8E-X\L	col-	.	.	.	.
.	.	.	.	.	.	8D\J	.	.	.	.	.
!LO:SIC:v:t=custos D	!	!	!	!	!	!	!	!	!	!	!
4C/	.	4C/	.	.	.	16E-X\LL	-po	.	.	.	.
.	.	.	.	.	.	16D\J	.	.	.	.	.
.	.	.	.	.	.	8C\J	.	.	.	.	.
!LO:LB:g=original	!	!	!	!	!	!	!	!	!	!	!
4D\	.	4D/	.	.	.	8D/	so-	.	.	.	.
.	.	.	.	.	.	8D/	-lo	.	.	.	.
8.E-\L	.	8.E-\L	.	.	.	8.E-\	è	.	.	.	.
16F\Jk	#	16F\Jk	#	.	.	16F#X\	ne	.	.	.	.
!LO:TX:t=P:problem:kreska pseudotaktowa	!	!LO:TX:t=P:problem:kreska pseudotaktowa	!	!	!	!	!	!	!	!	!
2G\	.	2G\	.	.	.	4G\	uien	.	.	.	.
.	.	.	.	.	.	8G\L	ra-	.	.	.	.
.	.	.	.	.	.	16A\L	.	.	.	.	.
.	.	.	.	.	.	16B-\JJ	.	.	.	.	.
=81-	=81-	=81-	=81-	=81-	=81-	=81-	=81-	=81-	=81-	=81-	=81-
4E-X\	.	4E-X\	.	0r	0r	8E-X\L	.	0ryy	.	0ryy	.
.	.	.	.	.	.	16Fny\L	.	.	.	.	.
.	.	.	.	.	.	16G\JJ	.	.	.	.	.
4C/	.	4C/	.	.	.	8C/L	.	.	.	.	.
.	.	.	.	.	.	16D/L	.	.	.	.	.
.	.	.	.	.	.	16E-/JJ	.	.	.	.	.
4AA/	6	4AA/	6	.	.	8AA/L	.	.	.	.	.
.	.	.	.	.	.	16BB-/L	.	.	.	.	.
.	.	.	.	.	.	16C/JJ	.	.	.	.	.
4FF/	.	4FF/	.	.	.	8FF/L	.	.	.	.	.
.	.	.	.	.	.	16GG/L	.	.	.	.	.
!	!	!	!	!	!	!LO:SIC:v:t=custos DD	!	!	!	!	!
.	.	.	.	.	.	16AA/JJ	.	.	.	.	.
!	!	!	!	!	!	!LO:LB:g=original	!	!	!	!	!
2DD/	6	2DD/	6	.	.	8.DD/	.	.	.	.	.
.	.	.	.	.	.	16DD/	-pi-	.	.	.	.
.	.	.	.	.	.	8DD/	-do	.	.	.	.
.	.	.	.	.	.	8DD/	a'	.	.	.	.
!LO:TX:t=P:problem:kreska pseudotaktowa	!	!LO:TX:t=P:problem:kreska pseudotaktowa	!	!	!	!	!	!	!	!	!
2GG/	7:6	2GG/	7:6	.	.	8.GG/L	uo-	.	.	.	.
.	.	.	.	.	.	16AA/Jk	.	.	.	.	.
.	.	.	.	.	.	16BB-/LL	.	.	.	.	.
.	.	.	.	.	.	16C/	.	.	.	.	.
.	.	.	.	.	.	16D/	.	.	.	.	.
.	.	.	.	.	.	16E-/JJ	.	.	.	.	.
=82-	=82-	=82-	=82-	=82-	=82-	=82-	=82-	=82-	=82-	=82-	=82-
4FF/	.	4FF/	.	0r	0r	8F\	.	0ryy	.	0ryy	.
.	.	.	.	.	.	8F\	-lo	.	.	.	.
4F#X\	6	4F#X\	6	.	.	8.F#X\	sou-	.	.	.	.
.	.	.	.	.	.	16F#\	-ra	.	.	.	.
2G\	.	2G\	.	.	.	4G\	ŭn	.	.	.	.
.	.	.	.	.	.	8G\	glo-	.	.	.	.
.	.	.	.	.	.	8GG/	-bo	.	.	.	.
2D/	6	2D/	6	.	.	4D/	fatal	.	.	.	.
.	.	.	.	.	.	2DD/	morte	.	.	.	.
4.D/	.	4.D/	.	.	.	.	.	.	.	.	.
.	.	.	.	.	.	8DD/	im-	.	.	.	.
!LO:TX:t=P:problem:kreska pseudotaktowa	!	!LO:TX:t=P:problem:kreska pseudotaktowa	!	!	!	!	!	!	!	!	!
8E-X\	.	8E-X\	.	.	.	8EE-X/	-por-	.	.	.	.
=83-	=83-	=83-	=83-	=83-	=83-	=83-	=83-	=83-	=83-	=83-	=83-
2Fny\	4:3	2Fny\	4:3	0r	0r	2FF/	-tu-	0ryy	.	0ryy	.
2BB-/	.	2BB-/	.	.	.	2BBB-/	-na	.	.	.	.
!	!	!	!	!	!	!LO:LB:g=original	!	!	!	!	!
2BB-/	6	2BB-/	6	.	.	4r	.	.	.	.	.
.	.	.	.	.	.	8BB-/	so-	.	.	.	.
.	.	.	.	.	.	8BB-/	-ra un	.	.	.	.
4C/	6 5	4C/	6 5	.	.	4C/	glo-	.	.	.	.
4D/	#	4D/	#	.	.	(16D/LL	-bo	.	.	.	.
.	.	.	.	.	.	16BB-/JJ)	.	.	.	.	.
.	.	.	.	.	.	(16C/LL	fa-	.	.	.	.
.	.	.	.	.	.	16D/JJ)	.	.	.	.	.
=84-	=84-	=84-	=84-	=84-	=84-	=84-	=84-	=84-	=84-	=84-	=84-
4.GG/	.	4.GG/	.	0r	0r	4GG/	-tal	0ryy	.	0ryy	.
.	.	.	.	.	.	(4G\	mor-	.	.	.	.
8AA/	.	8AA/	.	.	.	.	.	.	.	.	.
!	!	!LO:TX:t=P:problem:# below	!	!	!	!	!	!	!	!	!
!LO:N:acc=#	!	!LO:N:acc=#	!	!	!	!	!	!	!	!	!
2BBn/	6	2BBn/	6	.	.	8G\LL)	.	.	.	.	.
.	.	.	.	.	.	16Fny\	.	.	.	.	.
.	.	.	.	.	.	16G\JJ	.	.	.	.	.
.	.	.	.	.	.	16Eny\LL	.	.	.	.	.
.	.	.	.	.	.	16F\	.	.	.	.	.
.	.	.	.	.	.	16D\	.	.	.	.	.
.	.	.	.	.	.	16E\JJ	.	.	.	.	.
!	!	!LO:LB:g=original	!	!	!	!	!	!	!	!	!
4C/	.	4C/	.	.	.	8C/L	.	.	.	.	.
.	.	.	.	.	.	16BB-/L	.	.	.	.	.
.	.	.	.	.	.	16C/JJ	.	.	.	.	.
4AA/	.	4AA/	.	.	.	16AA/LL	.	.	.	.	.
.	.	.	.	.	.	16BB-/	.	.	.	.	.
.	.	.	.	.	.	16GG/	.	.	.	.	.
.	.	.	.	.	.	16AA/JJ	.	.	.	.	.
!LO:SIC:v:t=custos GG	!	!	!	!	!	!	!	!	!	!	!
2FF/	.	2FF/	.	.	.	4FF/	.	.	.	.	.
.	.	.	.	.	.	4FF/	-te	.	.	.	.
!LO:LB:g=original	!	!	!	!	!	!	!	!	!	!	!
=85-	=85-	=85-	=85-	=85-	=85-	=85-	=85-	=85-	=85-	=85-	=85-
!	!	!	!	!LO:TX:t=P:problem:kreska pseudotaktowa	!	!	!	!	!	!	!
4GG/	.	4GG/	.	1r	1r	4GG/	mor-	0ryy	.	0ryy	.
8AA/L	.	8AA/L	.	.	.	8AA/	-te im-	.	.	.	.
8BB-y/J	.	8BB-y/J	.	.	.	8BB-/	-por-	.	.	.	.
!LO:TX:t=P:problem:kreska pseudotaktowa	!	!LO:TX:t=P:problem:kreska pseudotaktowa	!	!	!	!	!	!	!	!	!
2AA/	4:3	2AA/	4:3	.	.	2AA/	-tŭ-	.	.	.	.
!	!	!	!	!	!	!LO:LB:g=original	!	!	!	!	!
2D/	.	2D/	.	8r	2r	2DD/	-na	.	.	.	.
.	.	.	.	8dd\L	.	.	.	.	.	.	.
.	.	.	.	8ccny\	.	.	.	.	.	.	.
.	.	.	.	16dd\L	.	.	.	.	.	.	.
.	.	.	.	16cc\JJ	.	.	.	.	.	.	.
2G\	.	2G\	.	2b-/	8r	2r	.	.	.	.	.
.	.	.	.	.	8gg\	.	.	.	.	.	.
.	.	.	.	.	8gg\L	.	.	.	.	.	.
.	.	.	.	.	16gg\L	.	.	.	.	.	.
!	!	!	!	!	!LO:TX:t=P:problem:kreska pseudotaktowa	!	!	!	!	!	!
.	.	.	.	.	16ff\JJ	.	.	.	.	.	.
=86-	=86-	=86-	=86-	=86-	=86-	=86-	=86-	=86-	=86-	=86-	=86-
2C/	.	2C/	.	8r	2ee\	0r	.	0ryy	.	0ryy	.
.	.	.	.	8cc\L	.	.	.	.	.	.	.
.	.	.	.	8b-\	.	.	.	.	.	.	.
.	.	.	.	16cc\L	.	.	.	.	.	.	.
.	.	.	.	16b-\JJ	.	.	.	.	.	.	.
!LO:TX:t=P:problem:kreska pseudotaktowa	!	!LO:TX:t=P:problem:kreska pseudotaktowa	!	!	!	!	!	!	!	!	!
2F\	.	2F\	.	4.a/	8r	.	.	.	.	.	.
.	.	.	.	.	8ff\	.	.	.	.	.	.
.	.	.	.	.	8ee-X\L	.	.	.	.	.	.
.	.	.	.	8a/	16ff\L	.	.	.	.	.	.
!	!	!	!	!	!LO:TX:t=P:problem:kreska pseudotaktowa	!	!	!	!	!	!
.	.	.	.	.	16ee-\JJ	.	.	.	.	.	.
2BB-/	.	2BB-/	.	8b-/L	2dd\	.	.	.	.	.	.
.	.	.	.	8f/	.	.	.	.	.	.	.
.	.	.	.	8g/	.	.	.	.	.	.	.
.	.	.	.	8d/J	.	.	.	.	.	.	.
4C/	.	4C/	.	4e/	8r	.	.	.	.	.	.
.	.	.	.	.	8cc\L	.	.	.	.	.	.
4BB-/	6 5	4BB-/	6 5	4f/	8dd\	.	.	.	.	.	.
!	!	!	!	!	!LO:TX:t=P:problem:kreska pseudotaktowa	!	!	!	!	!	!
.	.	.	.	.	8g\J	.	.	.	.	.	.
=87-	=87-	=87-	=87-	=87-	=87-	=87-	=87-	=87-	=87-	=87-	=87-
2C/	.	2C/	.	4.f/	4.g/	0r	.	0ryy	.	0ryy	.
.	.	.	.	8e/	8g/	.	.	.	.	.	.
!LO:TX:t=P:problem:kreska pseudotaktowa	!	!	!	!LO:TX:t=P:problem:mixed beam	!LO:TX:t=P:problem:mixed beam	!	!	!	!	!	!
2F\	.	2F\	.	8f/L	8a/L	.	.	.	.	.	.
.	.	.	.	8ff\J	8aa\J	.	.	.	.	.	.
.	.	.	.	8ee\L	8gg\L	.	.	.	.	.	.
.	.	.	.	16ff\L	16aa\L	.	.	.	.	.	.
!	!	!	!	!	!LO:TX:t=P:problem:kreska pseudotaktowa	!	!	!	!	!	!
.	.	.	.	16ee\JJ	16gg\JJ	.	.	.	.	.	.
!	!	!	!	!	!LO:LB:g=original	!	!	!	!	!	!
8r	.	8r	.	2dd\	2ff\	.	.	.	.	.	.
8B-\	.	8B-\	.	.	.	.	.	.	.	.	.
8A\L	.	8A\L	.	.	.	.	.	.	.	.	.
16B-\L	.	16B-\L	.	.	.	.	.	.	.	.	.
16A\JJ	.	16A\JJ	.	.	.	.	.	.	.	.	.
!LO:TX:t=P:problem:kreska pseudotaktowa	!	!LO:TX:t=P:problem:kreska pseudotaktowa	!	!	!	!	!	!	!	!	!
2G\	6\	2G\	6\	8r	8r	.	.	.	.	.	.
.	.	.	.	8ee\	8gg\	.	.	.	.	.	.
.	.	.	.	8dd\L	8ff\L	.	.	.	.	.	.
.	.	.	.	16ee\L	16gg\L	.	.	.	.	.	.
.	.	.	.	16dd\JJ	16ff\JJ	.	.	.	.	.	.
=88-	=88-	=88-	=88-	=88-	=88-	=88-	=88-	=88-	=88-	=88-	=88-
!	!	!	!	!	!	!	!	!LO:TX:a:t=poi alla + Sotto la lŭna, da Capo.	!	!	!
!	!	!	!	!	!	!	!	!LO:TX:a:t=Altri cerchi tacet	!	!LO:TX:a:t=Sotto la Lŭna da Capo	!
!	!	!	!	!	!	!LO:TX:a:t=Si Replica da Capo alla + Sotto la luna	!	!LO:TX:a:t=Dona i legni Tacett	!	!LO:TX:a:t=Altri cerchi Tacet	!
4A\	#	4A\	#	4cc#X\	4eeny\	0r	.	0ryy	.	0ryy	.
4F\	.	4F\	.	4dd\	4ff\	.	.	.	.	.	.
4G\	6 5	4G\	6 5	4.dd\	4.ee\	.	.	.	.	.	.
4A\	#	4A\	#	.	.	.	.	.	.	.	.
!	!	!	!	!LO:TX:t=P:problem:# above	!	!	!	!	!	!	!
.	.	.	.	8cc#X\	8ee\	.	.	.	.	.	.
!LO:TX:b:i:t=Si Replica da Capo alla + Sotto la lŭna	!	!	!	!LO:TX:b:i:t=Si Replica da Capo alla Sotto la luna da Capo alla +	!LO:TX:b:i:t=Sotto la luna da Capo alla +	!	!	!	!	!	!
1D;	.	1D;	.	1dd;	1dd	.	.	.	.	.	.
=-	=-	=-	=-	=-	=-	=-	=-	=-	=-	=-	=-
*-	*-	*-	*-	*-	*-	*-	*-	*-	*-	*-	*-
!!!system-decoration: [(s1,s2,s3)][(s4,s5,s6)][(s7)]
!!!RDF**kern: < = below
!!!ENC: Anastazja Marusiak
!!!END: 2022-01-28
!!!ENC: Urszula Świątek
!!!END: 2022-02-19
